!!!!SEGMENT: pl-cz--iii-454--004_maader-ludwik--litaniae-laurentanae-salus-infirmorum.krn
!!!cenid: 17xx:990
!!!COM: Maader, Ludwik
!!!COM-rismid: pe30020328
!!!CDT: <1794->1798
!!!CNT:
!!!OPR: Litaniae Laurentanae
!!!OTL: Salus infirmorum
!!!OMV: 004
!!!PDT:
!!!AGN: Sacred; Mass
!!!SMS-siglum: PL-CZ
!!!SMS-shelfmark: III-454
!!!SMS-shelfwork: 001-004 M
!!!SMS-variant:
!!!SMS-altvar:
!!!NIFC-rismid: 300000759
!!!URL-scan: http://repozytorium.nifc.pl/skany/pl-cz-nut--iii-454
!!!ONB-nifc: UWAGA: części Litanii: Kyrie, Sancta Maria, Rosa mystica, Salus infirmorum, Regina angelorum, Agnus Dei
!!!key: B-
**kern	**fba	**dynam	**kern	**dynam	**kern	**dynam	**kern	**kern	**text	**kern	**kern	**kern	**kern	**kern	**kern
*part11	*part11	*part11	*part10	*part10	*part9	*part9	*part8	*part7	*part7	*part6	*part5	*part4	*part3	*part2	*part1
*staff11	*	*	*staff10	*	*staff9	*	*staff8	*staff7	*staff7	*staff6	*staff5	*staff4	*staff3	*staff2	*staff1
*Iorgan	*	*	*Ivioln	*	*Ivioln	*	*Iempty	*Itenor	*	*Ialto	*Ivox	*Iempty	*Iempty	*Ioboe	*Ioboe
*I"Organo.	*	*	*I"Violino Secondo	*	*I"Violino Primo.	*	*I"Baſso	*I"Tenore	*	*I"Alto.	*I"Canto.	*I"Clarino 2do	*I"Clarino Primo	*I"Oboe Secondo	*I"Oboe Primo
*I'org	*	*	*I'vl 2	*	*I'vl 1	*	*I'B	*I'T	*	*I'A	*I'S	*I'clno 2	*I'clno 1	*I'ob 2	*I'ob 1
*ICklav	*	*	*ICstr	*	*ICstr	*	*ICvox	*ICvox	*	*ICvox	*ICvox	*ICbras	*ICbras	*ICww	*ICww
*clefF4	*	*	*clefG2	*	*clefG2	*	*clefF4	*clefC4	*	*clefC3	*clefC1	*clefG2	*clefG2	*clefG2	*clefG2
*	*	*	*	*	*	*	*	*	*	*	*	*ITrd1c2	*ITrd1c2	*	*
*k[b-e-]	*	*	*k[b-e-]	*	*k[b-e-]	*	*k[b-e-]	*k[b-e-]	*	*k[b-e-]	*k[b-e-]	*k[b-e-]	*k[b-e-]	*k[b-e-]	*k[b-e-]
*B-:	*	*	*B-:	*	*B-:	*	*B-:	*B-:	*	*B-:	*B-:	*B-:	*B-:	*B-:	*B-:
*M3/4	*	*	*M3/4	*	*M3/4	*	*M3/4	*M3/4	*	*M3/4	*M3/4	*M3/4	*M3/4	*M3/4	*M3/4
*	*	*	*	*	*	*below	*	*	*	*	*	*	*	*	*
=1	=1	=1	=1	=1	=1	=1	=1	=1	=1	=1	=1	=1	=1	=1	=1
!LO:TX:a:i:t=Solo	!	!	!	!	!	!	!	!LO:TX:a:i:t=Solo	!	!	!	!	!	!	!LO:TX:a:t=tacet
!LO:TX:rj:a:t=Andante	!	!	!LO:TX:rj:a:t=Andante.	!	!	!LO:DY:t=piano	!LO:TX:a:t=Tacet.	!LO:TX:rj:a:B:t=and&colon;	!	!LO:TX:a:t=Tacet.	!LO:TX:a:t=Tacet.	!LO:TX:a:t=tacet	!LO:TX:a:t=tacet	!LO:TX:a:t=tacet	!LO:TX:a:t=Andante
8BB-/L	.	.	(16B-/LL	.	4.b-\	p	2.ryy	0.r	.	2.ryy	2.ryy	2.ryy	2.ryy	2.ryy	2.ryy
.	.	.	16d/	.	.	.	.	.	.	.	.	.	.	.	.
8BB-/	.	.	16f/	.	.	.	.	.	.	.	.	.	.	.	.
.	.	.	16d/JJ)	.	.	.	.	.	.	.	.	.	.	.	.
8BB-/	.	.	(16B-/LL	.	.	.	.	.	.	.	.	.	.	.	.
.	.	.	16d/	.	.	.	.	.	.	.	.	.	.	.	.
8BB-/	.	.	16f/	.	16cc\LL	.	.	.	.	.	.	.	.	.	.
.	.	.	16d/JJ)	.	16b-\JJ	.	.	.	.	.	.	.	.	.	.
8BB-/	.	.	(16B-/LL	.	16a\LL	.	.	.	.	.	.	.	.	.	.
.	.	.	16d/	.	16b-\	.	.	.	.	.	.	.	.	.	.
8BB-/J	.	.	16f/	.	16cc\	.	.	.	.	.	.	.	.	.	.
.	.	.	16d/JJ)	.	16dd\JJ	.	.	.	.	.	.	.	.	.	.
=2	=2	=2	=2	=2	=2	=2	=2	=2	=2	=2	=2	=2	=2	=2	=2
*2\right	*	*	*	*	*2\right	*	*	*	*	*	*	*	*	*	*
*tremolo	*	*	*	*	*	*	*	*	*	*	*	*	*	*	*
8F\L	7	.	(16A/LL	.	2.ee-\	f	2.ryy	.	.	2.ryy	2.ryy	2.ryy	2.ryy	2.ryy	2.ryy
.	.	.	16c/	.	.	.	.	.	.	.	.	.	.	.	.
8F\	.	.	16f/	.	.	.	.	.	.	.	.	.	.	.	.
.	.	.	16c/JJ)	.	.	.	.	.	.	.	.	.	.	.	.
8F\	.	.	(16A/LL	.	.	.	.	.	.	.	.	.	.	.	.
.	.	.	16c/	.	.	.	.	.	.	.	.	.	.	.	.
8F\	.	.	16f/	.	.	.	.	.	.	.	.	.	.	.	.
.	.	.	16c/JJ)	.	.	.	.	.	.	.	.	.	.	.	.
8F\	.	.	(16A/LL	.	.	.	.	.	.	.	.	.	.	.	.
.	.	.	16c/	.	.	.	.	.	.	.	.	.	.	.	.
8F\J	.	.	16f/	.	.	.	.	.	.	.	.	.	.	.	.
.	.	.	16c/JJ)	.	.	.	.	.	.	.	.	.	.	.	.
=3	=3	=3	=3	=3	=3	=3	=3	=3	=3	=3	=3	=3	=3	=3	=3
8BB-/L	.	.	(16B-/LL	.	4.dd\	.	2.ryy	.	.	2.ryy	2.ryy	2.ryy	2.ryy	2.ryy	2.ryy
.	.	.	16d/	.	.	.	.	.	.	.	.	.	.	.	.
8BB-/	.	.	16f/	p	.	.	.	.	.	.	.	.	.	.	.
.	.	.	16d/JJ)	.	.	.	.	.	.	.	.	.	.	.	.
8BB-/	.	.	(16B-/LL	.	.	.	.	.	.	.	.	.	.	.	.
.	.	.	16d/	.	.	.	.	.	.	.	.	.	.	.	.
8BB-/	.	.	16f/	.	(16cc\LL	p	.	.	.	.	.	.	.	.	.
.	.	.	16d/JJ)	.	16b-\JJ)	.	.	.	.	.	.	.	.	.	.
!	!	!	!LO:LB:g=original	!	!	!	!	!	!	!	!	!	!	!	!
8BB-/	.	.	(16B-/LL	.	(16cc\LL	.	.	.	.	.	.	.	.	.	.
.	.	.	16d/	.	16dd\	.	.	.	.	.	.	.	.	.	.
8BB-/J	.	.	16f/	.	16ee-\	.	.	.	.	.	.	.	.	.	.
.	.	.	16d/JJ)	.	16ff\JJ)	.	.	.	.	.	.	.	.	.	.
=4	=4	=4	=4	=4	=4	=4	=4	=4	=4	=4	=4	=4	=4	=4	=4
8E-\L	.	.	(16e-/LL	f	2.gg\	f	2.ryy	.	.	2.ryy	2.ryy	2.ryy	2.ryy	2.ryy	2.ryy
.	.	.	16g/	.	.	.	.	.	.	.	.	.	.	.	.
8E-\	.	.	16b-/	.	.	.	.	.	.	.	.	.	.	.	.
.	.	.	16g/JJ)	.	.	.	.	.	.	.	.	.	.	.	.
8E-\	.	.	(16e-/LL	.	.	.	.	.	.	.	.	.	.	.	.
.	.	.	16g/	.	.	.	.	.	.	.	.	.	.	.	.
8E-\	.	.	16b-/	.	.	.	.	.	.	.	.	.	.	.	.
.	.	.	16g/JJ)	.	.	.	.	.	.	.	.	.	.	.	.
8E-\	.	.	(16e-/LL	.	.	.	.	.	.	.	.	.	.	.	.
.	.	.	16g/	.	.	.	.	.	.	.	.	.	.	.	.
8E-\J	.	.	16b-/	.	.	.	.	.	.	.	.	.	.	.	.
.	.	.	16g/JJ)	.	.	.	.	.	.	.	.	.	.	.	.
*Xtremolo	*	*	*	*	*	*	*	*	*	*	*	*	*	*	*
=5	=5	=5	=5	=5	=5	=5	=5	=5	=5	=5	=5	=5	=5	=5	=5
4BB-/	.	.	4f/	.	4ff\	.	2.ryy	0.r	.	2.ryy	2.ryy	2.ryy	2.ryy	2.ryy	2.ryy
4B-\	.	.	8bb-\L	.	8bb-\L	.	.	.	.	.	.	.	.	.	.
.	.	.	16bb-\L	.	16ddd\L	.	.	.	.	.	.	.	.	.	.
.	.	.	16aa\JJ	.	16ccc\JJ	.	.	.	.	.	.	.	.	.	.
4r	.	.	16gg\LL	.	16bb-\LL	.	.	.	.	.	.	.	.	.	.
.	.	.	16ff\	.	16aa\	.	.	.	.	.	.	.	.	.	.
.	.	.	16ee-\	.	16gg\	.	.	.	.	.	.	.	.	.	.
.	.	.	16dd\JJ	.	16ff\JJ	.	.	.	.	.	.	.	.	.	.
!	!	!	!	!	!LO:LB:g=original	!	!	!	!	!	!	!	!	!	!
=6	=6	=6	=6	=6	=6	=6	=6	=6	=6	=6	=6	=6	=6	=6	=6
.	.	.	.	.	8qqff/	.	.	.	.	.	.	.	.	.	.
4F\	.	.	4ccT\	.	4ee-\	.	2.ryy	.	.	2.ryy	2.ryy	2.ryy	2.ryy	2.ryy	2.ryy
4BB-/	.	.	4b-\	.	4dd\	.	.	.	.	.	.	.	.	.	.
4r	.	.	4r	.	4r	.	.	.	.	.	.	.	.	.	.
!LO:LB:g=original	!	!	!	!	!	!	!	!	!	!	!	!	!	!	!
=7	=7	=7	=7	=7	=7	=7	=7	=7	=7	=7	=7	=7	=7	=7	=7
*tremolo	*	*	*	*	*	*	*	*	*	*	*	*	*	*	*
8E-\L	.	.	4.g/	.	4.cc\	.	2.ryy	.	.	2.ryy	2.ryy	2.ryy	2.ryy	2.ryy	2.ryy
8E-\	.	.	.	.	.	.	.	.	.	.	.	.	.	.	.
8E-\	.	.	.	.	.	.	.	.	.	.	.	.	.	.	.
8E-\	.	.	16g/LL	.	(16ee-\LL	.	.	.	.	.	.	.	.	.	.
.	.	.	16f/JJ	.	16dd\JJ)	.	.	.	.	.	.	.	.	.	.
.	.	.	8qqf/	.	8qdd/	.	.	.	.	.	.	.	.	.	.
8E-\	.	.	8e-/L	.	8cc\L	.	.	.	.	.	.	.	.	.	.
8E-\J	.	.	16d/L	.	16b-\L	.	.	.	.	.	.	.	.	.	.
.	.	.	16c/JJ	.	16a\JJ	.	.	.	.	.	.	.	.	.	.
*Xtremolo	*	*	*	*	*	*	*	*	*	*	*	*	*	*	*
!	!	!	!LO:LB:g=original	!	!	!	!	!	!	!	!	!	!	!	!
=8	=8	=8	=8	=8	=8	=8	=8	=8	=8	=8	=8	=8	=8	=8	=8
8D'\L	.	.	16d/LL	.	16b-/LL	.	2.ryy	.	.	2.ryy	2.ryy	2.ryy	2.ryy	2.ryy	2.ryy
.	.	.	16c/	.	(16a/	.	.	.	.	.	.	.	.	.	.
8F'\	.	.	16e-/	.	16b-/	.	.	.	.	.	.	.	.	.	.
.	.	.	16c/JJ	.	16a/JJ)	.	.	.	.	.	.	.	.	.	.
8B-'\	.	.	8d/L	.	8b-/L	.	.	.	.	.	.	.	.	.	.
8F'\	.	.	8f/	.	8f/	.	.	.	.	.	.	.	.	.	.
8D'\	.	.	8d/	.	8d/	.	.	.	.	.	.	.	.	.	.
8BB-'\J	.	.	8B-/J	.	8B-/J	.	.	.	.	.	.	.	.	.	.
=9	=9	=9	=9	=9	=9	=9	=9	=9	=9	=9	=9	=9	=9	=9	=9
!LO:TX:t=P:problem=mixed beam	!	!	!	!	!LO:TX:t=P:problem=mixed beam	!	!	!	!	!	!	!	!	!	!
8F\L	.	.	8A/L	.	8A/L	.	2.ryy	0.r	.	2.ryy	2.ryy	2.ryy	2.ryy	2.ryy	2.ryy
8F\	.	.	8f/J	.	8aa\	.	.	.	.	.	.	.	.	.	.
8AA/	.	.	8ee-\L	.	8ccc\	.	.	.	.	.	.	.	.	.	.
8AA/	.	.	8cc\	.	8ee-\	.	.	.	.	.	.	.	.	.	.
8BB-\	.	.	8b-\	.	8ddt\	.	.	.	.	.	.	.	.	.	.
8BB-/J	.	.	8dd\J	.	8bb-\J	.	.	.	.	.	.	.	.	.	.
=10	=10	=10	=10	=10	=10	=10	=10	=10	=10	=10	=10	=10	=10	=10	=10
4F|\	.	.	4b-T\	.	4ddt\	.	2.ryy	.	.	2.ryy	2.ryy	2.ryy	2.ryy	2.ryy	2.ryy
!LO:TX:t=P:problem=mixed beam	!	!	!	!	!	!	!	!	!	!	!	!	!	!	!
8FF|\L	.	.	4a\	.	4cc\	.	.	.	.	.	.	.	.	.	.
8F|\	.	.	.	.	.	.	.	.	.	.	.	.	.	.	.
8C|\	.	.	4r	.	4r	.	.	.	.	.	.	.	.	.	.
8AA|\J	.	.	.	.	.	.	.	.	.	.	.	.	.	.	.
=11	=11	=11	=11	=11	=11	=11	=11	=11	=11	=11	=11	=11	=11	=11	=11
*	*	*	*2\right	*	*	*	*	*	*	*	*	*	*	*	*
*tremolo	*	*	*tremolo	*	*	*	*	*	*	*	*	*	*	*	*
8FF/L	.	.	8a\L	.	4.ff\	.	2.ryy	.	.	2.ryy	2.ryy	2.ryy	2.ryy	2.ryy	2.ryy
8FF/	.	.	8a\	.	.	.	.	.	.	.	.	.	.	.	.
8FF/	.	.	8a\	.	.	.	.	.	.	.	.	.	.	.	.
8FF/	.	.	8a\	.	16een\LL	.	.	.	.	.	.	.	.	.	.
.	.	.	.	.	16ff\JJ	.	.	.	.	.	.	.	.	.	.
8FF/	.	.	8a\	.	(16gg\LL	.	.	.	.	.	.	.	.	.	.
.	.	.	.	.	16ff\	.	.	.	.	.	.	.	.	.	.
8FF/J	.	.	8a\J	.	16ee\	.	.	.	.	.	.	.	.	.	.
.	.	.	.	.	16ff\JJ)	.	.	.	.	.	.	.	.	.	.
*	*	*	*Xtremolo	*	*	*	*	*	*	*	*	*	*	*	*
!	!	!	!	!	!LO:LB:g=original	!	!	!	!	!	!	!	!	!	!
=12	=12	=12	=12	=12	=12	=12	=12	=12	=12	=12	=12	=12	=12	=12	=12
8CC/L	n	.	4.b-\	.	2.een\	.	2.ryy	.	.	2.ryy	2.ryy	2.ryy	2.ryy	2.ryy	2.ryy
8C/J	.	.	.	.	.	.	.	.	.	.	.	.	.	.	.
8C/L	.	.	.	.	.	.	.	.	.	.	.	.	.	.	.
8C/	.	.	(16a\LL	.	.	.	.	.	.	.	.	.	.	.	.
.	.	.	16b-\JJ)	.	.	.	.	.	.	.	.	.	.	.	.
8C/	.	.	(16cc\LL	.	.	.	.	.	.	.	.	.	.	.	.
.	.	.	16b-\	.	.	.	.	.	.	.	.	.	.	.	.
8C/J	.	.	16a\	.	.	.	.	.	.	.	.	.	.	.	.
.	.	.	16b-\JJ)	.	.	.	.	.	.	.	.	.	.	.	.
=13	=13	=13	=13	=13	=13	=13	=13	=13	=13	=13	=13	=13	=13	=13	=13
*	*	*	*tremolo	*	*	*	*	*	*	*	*	*	*	*	*
8F\L	-7	.	8a\L	.	4.ee-X\	.	2.ryy	0.r	.	2.ryy	2.ryy	2.ryy	2.ryy	2.ryy	2.ryy
8F\	.	.	8a\	.	.	.	.	.	.	.	.	.	.	.	.
8F\	.	.	8a\	.	.	.	.	.	.	.	.	.	.	.	.
8F\	.	.	8a\	.	(16dd\LL	.	.	.	.	.	.	.	.	.	.
.	.	.	.	.	16ee-\JJ)	.	.	.	.	.	.	.	.	.	.
8F\	.	.	8a\	.	(16ff\LL	.	.	.	.	.	.	.	.	.	.
.	.	.	.	.	16ee-\	.	.	.	.	.	.	.	.	.	.
8F\J	.	.	8a\J	.	16dd\	.	.	.	.	.	.	.	.	.	.
.	.	.	.	.	16ee-\JJ)	.	.	.	.	.	.	.	.	.	.
*Xtremolo	*	*	*Xtremolo	*	*	*	*	*	*	*	*	*	*	*	*
=14	=14	=14	=14	=14	=14	=14	=14	=14	=14	=14	=14	=14	=14	=14	=14
4BB-/	.	.	(16b-\LL	.	(16dd\LL	.	2.ryy	.	.	2.ryy	2.ryy	2.ryy	2.ryy	2.ryy	2.ryy
.	.	.	16bb-\)	.	16bb-\)	.	.	.	.	.	.	.	.	.	.
.	.	.	(16ddd\	.	(16ddd\	.	.	.	.	.	.	.	.	.	.
.	.	.	16bb-\JJ)	.	16bb-\JJ)	.	.	.	.	.	.	.	.	.	.
4r	.	.	(16ff\LL	.	(16ff\LL	.	.	.	.	.	.	.	.	.	.
.	.	.	16bb-\	.	16bb-\)	.	.	.	.	.	.	.	.	.	.
.	.	.	16dd\	.	(16dd\	.	.	.	.	.	.	.	.	.	.
.	.	.	16ff\JJ)	.	16ff\JJ)	.	.	.	.	.	.	.	.	.	.
4r	.	.	(16b-\LL	.	16b-'\LL	.	.	.	.	.	.	.	.	.	.
.	.	.	16dd\	.	16dd'\	.	.	.	.	.	.	.	.	.	.
.	.	.	16ff\	.	16ff'\	.	.	.	.	.	.	.	.	.	.
.	.	.	16dd\JJ)	.	16dd'\JJ	.	.	.	.	.	.	.	.	.	.
!	!	!	!LO:LB:g=original	!	!	!	!	!	!	!	!	!	!	!	!
=15	=15	=15	=15	=15	=15	=15	=15	=15	=15	=15	=15	=15	=15	=15	=15
4F\	7	.	(16ee-\LL	.	16ee-\LL	.	2.ryy	.	.	2.ryy	2.ryy	2.ryy	2.ryy	2.ryy	2.ryy
.	.	.	16cc\	.	16cc\	.	.	.	.	.	.	.	.	.	.
.	.	.	16ff\	.	16ff\	.	.	.	.	.	.	.	.	.	.
.	.	.	16aa\JJ)	.	16aa\JJ	.	.	.	.	.	.	.	.	.	.
4r	.	.	(16ccc\LL	.	(16ccc\LL	.	.	.	.	.	.	.	.	.	.
.	.	.	16bb-\	.	16bb-\	.	.	.	.	.	.	.	.	.	.
.	.	.	16aa\	.	16aa\	.	.	.	.	.	.	.	.	.	.
.	.	.	16gg\JJ)	.	16gg\JJ)	.	.	.	.	.	.	.	.	.	.
4r	.	.	(16ff\LL	.	(16ff\LL	.	.	.	.	.	.	.	.	.	.
.	.	.	16ee-\	.	16ee-\	.	.	.	.	.	.	.	.	.	.
.	.	.	16dd\	.	16dd\	.	.	.	.	.	.	.	.	.	.
.	.	.	16ee-\JJ)	.	16ee-\JJ)	.	.	.	.	.	.	.	.	.	.
!LO:LB:g=original	!	!	!	!	!	!	!	!	!	!	!	!	!	!	!
=16	=16	=16	=16	=16	=16	=16	=16	=16	=16	=16	=16	=16	=16	=16	=16
8BB-/L	.	.	2b-\	p	(2dd\	p	2.ryy	.	.	2.ryy	2.ryy	2.ryy	2.ryy	2.ryy	2.ryy
8BB-/	.	.	.	.	.	.	.	.	.	.	.	.	.	.	.
8BB-/	4 2	.	.	.	.	.	.	.	.	.	.	.	.	.	.
8BB-/	_ _	.	.	.	.	.	.	.	.	.	.	.	.	.	.
8BB-/	.	.	4cc\	.	4ee-\)	.	.	.	.	.	.	.	.	.	.
8BB-/J	x	.	.	.	.	.	.	.	.	.	.	.	.	.	.
!	!	!	!	!	!LO:LB:g=original	!	!	!	!	!	!	!	!	!	!
=17	=17	=17	=17	=17	=17	=17	=17	=17	=17	=17	=17	=17	=17	=17	=17
8BB-/L	5 3	.	4dd\	.	4ff\	.	2.ryy	0.r	.	2.ryy	2.ryy	2.ryy	2.ryy	2.ryy	2.ryy
8BB-/	_ _	.	.	.	.	.	.	.	.	.	.	.	.	.	.
8BB-/	6 4	.	4ee-\	.	4gg\	.	.	.	.	.	.	.	.	.	.
8BB-/	_ _	.	.	.	.	.	.	.	.	.	.	.	.	.	.
8BB-/	7 5	.	4cc\	.	4aan\	.	.	.	.	.	.	.	.	.	.
8BB-/J	_ _	.	.	.	.	.	.	.	.	.	.	.	.	.	.
=18	=18	=18	=18	=18	=18	=18	=18	=18	=18	=18	=18	=18	=18	=18	=18
*	*	*	*^	*	*	*	*	*	*	*	*	*	*	*	*
!	!	!	!	!	!LO:DY:rj	!	!	!	!	!	!	!	!	!	!	!
4BB-/	8 5	.	8.dd\L	4ryy	f	8bb-\L	f	2.ryy	.	.	2.ryy	2.ryy	2.ryy	2.ryy	2.ryy	2.ryy
.	.	.	.	.	.	16aa\L	.	.	.	.	.	.	.	.	.	.
.	.	.	32cc\LL	.	.	16bb-\JJ	.	.	.	.	.	.	.	.	.	.
.	.	.	32dd\JJJ	.	.	.	.	.	.	.	.	.	.	.	.	.
4B-\	6 n4	.	4b-/	4g\	.	4een\	.	.	.	.	.	.	.	.	.	.
4r	.	.	4r	4ryy	.	4r	.	.	.	.	.	.	.	.	.	.
*	*	*	*v	*v	*	*	*	*	*	*	*	*	*	*	*	*
=19	=19	=19	=19	=19	=19	=19	=19	=19	=19	=19	=19	=19	=19	=19	=19
*tremolo	*	*	*	*	*	*	*	*	*	*	*	*	*	*	*
8F\L	-7	.	(16A/LL	.	2.ee-X\	p	2.ryy	.	.	2.ryy	2.ryy	2.ryy	2.ryy	2.ryy	2.ryy
.	.	.	16c/	.	.	.	.	.	.	.	.	.	.	.	.
!	!	!	!	!LO:DY:t=po.	!	!	!	!	!	!	!	!	!	!	!
8F\	.	.	16f/	p	.	.	.	.	.	.	.	.	.	.	.
.	.	.	16c/JJ)	.	.	.	.	.	.	.	.	.	.	.	.
8F\	.	.	(16A/LL	.	.	.	.	.	.	.	.	.	.	.	.
.	.	.	16c/	.	.	.	.	.	.	.	.	.	.	.	.
8F\	.	.	16f/	.	.	.	.	.	.	.	.	.	.	.	.
.	.	.	16c/JJ)	.	.	.	.	.	.	.	.	.	.	.	.
8F\	.	.	(16A/LL	.	.	.	.	.	.	.	.	.	.	.	.
.	.	.	16c/	.	.	.	.	.	.	.	.	.	.	.	.
8F\J	.	.	16f/	.	.	.	.	.	.	.	.	.	.	.	.
.	.	.	16c/JJ)	.	.	.	.	.	.	.	.	.	.	.	.
*Xtremolo	*	*	*	*	*	*	*	*	*	*	*	*	*	*	*
!	!	!	!LO:LB:g=original	!	!	!	!	!	!	!	!	!	!	!	!
=20	=20	=20	=20	=20	=20	=20	=20	=20	=20	=20	=20	=20	=20	=20	=20
4B-\	.	.	8.f/L	.	8dd\L	.	2.ryy	.	.	2.ryy	2.ryy	2.ryy	2.ryy	2.ryy	2.ryy
.	.	.	.	.	16ee-\L	f	.	.	.	.	.	.	.	.	.
.	.	.	(32g/LL	.	16cc\JJ	.	.	.	.	.	.	.	.	.	.
.	.	.	32e-/JJJ)	.	.	.	.	.	.	.	.	.	.	.	.
4F\	4 3	.	4d/	.	4b-\	.	.	.	.	.	.	.	.	.	.
4BB-/	.	.	4c/	.	4a\	.	.	.	.	.	.	.	.	.	.
!	!	!	!	!	!LO:LB:g=original	!	!	!	!	!	!	!	!	!	!
=21	=21	=21	=21	=21	=21	=21	=21	=21	=21	=21	=21	=21	=21	=21	=21
*	*	*	*^	*	*	*	*	*	*	*	*	*	*	*	*
4BB-/	6 n4	.	8.dd\L	4ryy	f	8bb-\L	f	2.ryy	0.r	.	2.ryy	2.ryy	2.ryy	2.ryy	2.ryy	2.ryy
.	.	.	.	.	.	16aa\L	.	.	.	.	.	.	.	.	.	.
.	.	.	32cc\LL	.	.	16bb-\JJ	.	.	.	.	.	.	.	.	.	.
.	.	.	32dd\JJJ	.	.	.	.	.	.	.	.	.	.	.	.	.
4B-\	.	.	4b-/	4g\	.	4een\	.	.	.	.	.	.	.	.	.	.
4r	.	.	4r	4ryy	.	4r	.	.	.	.	.	.	.	.	.	.
*	*	*	*v	*v	*	*	*	*	*	*	*	*	*	*	*	*
=22	=22	=22	=22	=22	=22	=22	=22	=22	=22	=22	=22	=22	=22	=22	=22
*tremolo	*	*	*	*	*	*	*	*	*	*	*	*	*	*	*
!	!	!	!	!LO:DY:rj:t=po.	!	!	!	!	!	!	!	!	!	!	!
8F\L	-7	.	(16A/LL	p	2.ee-X\	p	2.ryy	.	.	2.ryy	2.ryy	2.ryy	2.ryy	2.ryy	2.ryy
.	.	.	16c/	.	.	.	.	.	.	.	.	.	.	.	.
8F\	.	.	16f/	.	.	.	.	.	.	.	.	.	.	.	.
.	.	.	16c/JJ)	.	.	.	.	.	.	.	.	.	.	.	.
8F\	.	.	(16A/LL	.	.	.	.	.	.	.	.	.	.	.	.
.	.	.	16c/	.	.	.	.	.	.	.	.	.	.	.	.
8F\	.	.	16f/	.	.	.	.	.	.	.	.	.	.	.	.
.	.	.	16c/JJ)	.	.	.	.	.	.	.	.	.	.	.	.
8F\	.	.	(16A/LL	.	.	.	.	.	.	.	.	.	.	.	.
.	.	.	16c/	.	.	.	.	.	.	.	.	.	.	.	.
8F\J	.	.	16f/	.	.	.	.	.	.	.	.	.	.	.	.
.	.	.	16c/JJ)	.	.	.	.	.	.	.	.	.	.	.	.
*Xtremolo	*	*	*	*	*	*	*	*	*	*	*	*	*	*	*
!LO:LB:g=original	!	!	!	!	!	!	!	!	!	!	!	!	!	!	!
=23	=23	=23	=23	=23	=23	=23	=23	=23	=23	=23	=23	=23	=23	=23	=23
4B-\	.	.	8.f/L	.	8dd\L	.	2.ryy	.	.	2.ryy	2.ryy	2.ryy	2.ryy	2.ryy	2.ryy
.	.	.	.	.	16ee-\L	.	.	.	.	.	.	.	.	.	.
.	.	.	(32g/LL	.	16cc\JJ	.	.	.	.	.	.	.	.	.	.
.	.	.	32e-/JJJ)	.	.	.	.	.	.	.	.	.	.	.	.
4F\	4 3	.	4d/	.	4b-\	.	.	.	.	.	.	.	.	.	.
4FF/	.	.	4c/	.	4a\	.	.	.	.	.	.	.	.	.	.
=24	=24	=24	=24	=24	=24	=24	=24	=24	=24	=24	=24	=24	=24	=24	=24
*tremolo	*	*	*	*	*	*	*	*	*	*	*	*	*	*	*
8BB-/L	.	.	4d/	.	4b-\	p	2.ryy	.	.	2.ryy	2.ryy	2.ryy	2.ryy	2.ryy	2.ryy
8BB-/	.	.	.	.	.	.	.	.	.	.	.	.	.	.	.
8BB-/	.	.	8r	.	8r	.	.	.	.	.	.	.	.	.	.
8BB-/J	.	.	8f|/L	.	8dd\L	f	.	.	.	.	.	.	.	.	.
*Xtremolo	*	*	*	*	*	*	*	*	*	*	*	*	*	*	*
8FF/L	.	.	(8g/	.	8ee-\	.	.	.	.	.	.	.	.	.	.
8FF/J	.	.	8e-/J)	.	8a\J	.	.	.	.	.	.	.	.	.	.
!	!	!	!LO:LB:g=original	!	!	!	!	!	!	!	!	!	!	!	!
=25	=25	=25	=25	=25	=25	=25	=25	=25	=25	=25	=25	=25	=25	=25	=25
*tremolo	*	*	*	*	*	*	*	*	*	*	*	*	*	*	*
8BB-/L	.	.	4d/	.	4b-\	p	2.ryy	1.r	.	2.ryy	2.ryy	2.ryy	2.ryy	2.ryy	2.ryy
8BB-/	.	.	.	.	.	.	.	.	.	.	.	.	.	.	.
8BB-/	.	.	8r	.	8r	.	.	.	.	.	.	.	.	.	.
8BB-/J	.	.	8f|/L	.	8dd\L	f	.	.	.	.	.	.	.	.	.
*Xtremolo	*	*	*	*	*	*	*	*	*	*	*	*	*	*	*
8FF/L	.	.	(8g/	.	8ee-\	.	.	.	.	.	.	.	.	.	.
8FF/J	.	.	8e-/J)	.	8a\J	.	.	.	.	.	.	.	.	.	.
=26	=26	=26	=26	=26	=26	=26	=26	=26	=26	=26	=26	=26	=26	=26	=26
*tremolo	*	*	*	*	*	*	*	*	*	*	*	*	*	*	*
8BB-/L	.	.	4d/	.	(4b-\	.	2.ryy	.	.	2.ryy	2.ryy	2.ryy	2.ryy	2.ryy	2.ryy
8BB-/	.	.	.	.	.	.	.	.	.	.	.	.	.	.	.
!	!	!	!	!	!LO:TX:t=P:problem=mixed beam	!	!	!	!	!	!	!	!	!	!
8BB-/	.	.	8r	.	8f/L)	.	.	.	.	.	.	.	.	.	.
8BB-/J	.	.	8f|/L	.	8dd\	.	.	.	.	.	.	.	.	.	.
*Xtremolo	*	*	*	*	*	*	*	*	*	*	*	*	*	*	*
8FF/L	.	.	(8g/	.	8ee-\	.	.	.	.	.	.	.	.	.	.
8FF/J	.	.	8e-/J)	.	8a\J	.	.	.	.	.	.	.	.	.	.
=27	=27	=27	=27	=27	=27	=27	=27	=27	=27	=27	=27	=27	=27	=27	=27
!LO:TX:t=P:problem=mixed beam	!	!	!	!	!	!	!	!	!	!	!	!	!	!	!
8BB-/L	.	.	(8d/L	.	8.b-/L	.	2.ryy	2.r	.	2.ryy	2.ryy	2.ryy	2.ryy	2.ryy	2.ryy
8B-\J	.	.	16f/L	.	.	.	.	.	.	.	.	.	.	.	.
.	.	.	16d/JJ)	.	32f/LL	.	.	.	.	.	.	.	.	.	.
.	.	.	.	.	32d/JJJ	.	.	.	.	.	.	.	.	.	.
4BB-/	.	.	4B-/	.	4B-/	.	.	.	.	.	.	.	.	.	.
4r	.	.	4r	.	4r	.	.	.	.	.	.	.	.	.	.
=28	=28	=28	=28	=28	=28	=28	=28	=28	=28	=28	=28	=28	=28	=28	=28
*tremolo	*	*	*	*	*	*	*	*	*	*	*	*	*	*	*
!	!	!LO:DY:b:t=pia.	!	!	!	!	!	!	!	!	!	!	!	!	!
8BB-/L	.	p	(16B-/LL	.	4.b-\	p	2.ryy	4.B-\	Sa-	2.ryy	2.ryy	2.ryy	2.ryy	2.ryy	2.ryy
.	.	.	16d/	.	.	.	.	.	.	.	.	.	.	.	.
8BB-/	.	.	16f/	.	.	.	.	.	.	.	.	.	.	.	.
.	.	.	16d/JJ)	.	.	.	.	.	.	.	.	.	.	.	.
8BB-/	.	.	(16B-/LL	.	.	.	.	.	.	.	.	.	.	.	.
.	.	.	16d/	.	.	.	.	.	.	.	.	.	.	.	.
8BB-/	.	.	16f/	.	16cc\LL	.	.	16c\LL	-lus	.	.	.	.	.	.
.	.	.	16d/JJ)	.	16b-\JJ	.	.	16B-\JJ	.	.	.	.	.	.	.
!	!	!	!	!	!LO:TX:b:t=vox	!	!	!	!	!	!	!	!	!	!
8BB-/	.	.	(16B-/LL	.	16a\LL	.	.	16A\LL	Sa-	.	.	.	.	.	.
.	.	.	16d/	.	16b-\	.	.	16B-\	.	.	.	.	.	.	.
8BB-/J	.	.	16f/	.	16cc\	.	.	16c\	.	.	.	.	.	.	.
.	.	.	16d/JJ)	.	16dd\JJ	.	.	16d\JJ	.	.	.	.	.	.	.
=29	=29	=29	=29	=29	=29	=29	=29	=29	=29	=29	=29	=29	=29	=29	=29
.	.	.	.	.	.	.	.	8qqf/	.	.	.	.	.	.	.
*	*	*	*	*	*	*	*	*2\right	*	*	*	*	*	*	*
8F\L	.	.	(16A/LL	.	2.ee-\	f	2.ryy	2.e-\	-lus	2.ryy	2.ryy	2.ryy	2.ryy	2.ryy	2.ryy
.	.	.	16c/	.	.	.	.	.	.	.	.	.	.	.	.
8F\	.	.	16f/	.	.	.	.	.	.	.	.	.	.	.	.
.	.	.	16c/JJ)	.	.	.	.	.	.	.	.	.	.	.	.
8F\	.	.	(16A/LL	.	.	.	.	.	.	.	.	.	.	.	.
.	.	.	16c/	.	.	.	.	.	.	.	.	.	.	.	.
8F\	.	.	16f/	.	.	.	.	.	.	.	.	.	.	.	.
.	.	.	16c/JJ)	.	.	.	.	.	.	.	.	.	.	.	.
8F\	.	.	(16A/LL	.	.	.	.	.	.	.	.	.	.	.	.
.	.	.	16c/	.	.	.	.	.	.	.	.	.	.	.	.
8F\J	.	.	16f/	.	.	.	.	.	.	.	.	.	.	.	.
.	.	.	16c/JJ)	.	.	.	.	.	.	.	.	.	.	.	.
!	!	!	!LO:LB:g=original	!	!	!	!	!	!	!	!	!	!	!	!
=30	=30	=30	=30	=30	=30	=30	=30	=30	=30	=30	=30	=30	=30	=30	=30
8BB-/L	.	.	(16B-/LL	.	4.dd\	p	2.ryy	4.d\	Sa-	2.ryy	2.ryy	2.ryy	2.ryy	2.ryy	2.ryy
.	.	.	16d/	.	.	.	.	.	.	.	.	.	.	.	.
8BB-/	.	.	16f/	.	.	.	.	.	.	.	.	.	.	.	.
.	.	.	16d/JJ)	.	.	.	.	.	.	.	.	.	.	.	.
8BB-/	.	.	(16B-/LL	.	.	.	.	.	.	.	.	.	.	.	.
.	.	.	16d/	.	.	.	.	.	.	.	.	.	.	.	.
8BB-/	.	.	16f/	.	16cc\LL	.	.	16c\LL	.	.	.	.	.	.	.
.	.	.	16d/JJ)	.	16b-\JJ	.	.	16B-\JJ	.	.	.	.	.	.	.
8BB-/	.	.	(16B-/LL	.	16cc\LL	.	.	16c\LL	.	.	.	.	.	.	.
.	.	.	16d/	.	16dd\	.	.	16d\	.	.	.	.	.	.	.
8BB-/J	.	.	16f/	.	16ee-\	.	.	16e-\	.	.	.	.	.	.	.
.	.	.	16d/JJ)	.	16ff\JJ	.	.	16f\JJ	.	.	.	.	.	.	.
!LO:LB:g=original	!	!	!	!	!LO:LB:g=original	!	!	!	!	!	!	!	!	!	!
=31	=31	=31	=31	=31	=31	=31	=31	=31	=31	=31	=31	=31	=31	=31	=31
.	.	.	.	.	.	.	.	8qqf/	.	.	.	.	.	.	.
8E-\L	.	.	(16e-/LL	.	2.gg\	f	2.ryy	2.g\	-lus	2.ryy	2.ryy	2.ryy	2.ryy	2.ryy	2.ryy
.	.	.	16g/	.	.	.	.	.	.	.	.	.	.	.	.
8E-\	.	.	16b-/	.	.	.	.	.	.	.	.	.	.	.	.
.	.	.	16g/JJ)	.	.	.	.	.	.	.	.	.	.	.	.
8E-\	.	.	(16e-/LL	.	.	.	.	.	.	.	.	.	.	.	.
.	.	.	16g/	.	.	.	.	.	.	.	.	.	.	.	.
8E-\	.	.	16b-/	.	.	.	.	.	.	.	.	.	.	.	.
.	.	.	16g/JJ)	.	.	.	.	.	.	.	.	.	.	.	.
8E-\	.	.	(16e-/LL	.	.	.	.	.	.	.	.	.	.	.	.
.	.	.	16g/	.	.	.	.	.	.	.	.	.	.	.	.
8E-\J	.	.	16b-/	.	.	.	.	.	.	.	.	.	.	.	.
.	.	.	16g/JJ)	.	.	.	.	.	.	.	.	.	.	.	.
*Xtremolo	*	*	*	*	*	*	*	*	*	*	*	*	*	*	*
!	!	!	!	!	!	!	!	!LO:LB:g=original	!	!	!	!	!	!	!
=32	=32	=32	=32	=32	=32	=32	=32	=32	=32	=32	=32	=32	=32	=32	=32
4BB-/	.	.	4f/	.	4ff\	p	2.ryy	4f\	in-	2.ryy	2.ryy	2.ryy	2.ryy	2.ryy	2.ryy
4B-\	.	.	8dd\L	.	8bb-\L	.	.	4.f\	-fir-	.	.	.	.	.	.
.	.	.	16bb-\L	.	16ddd\L	.	.	.	.	.	.	.	.	.	.
.	.	.	16aa\JJ	.	16ccc\JJ	.	.	.	.	.	.	.	.	.	.
4r	.	.	16gg\LL	.	(16bb-\LL	.	.	.	.	.	.	.	.	.	.
.	.	.	16ff\	.	16aa\	.	.	.	.	.	.	.	.	.	.
.	.	.	16ee-\	.	16gg\	.	.	16g\LL	.	.	.	.	.	.	.
.	.	.	16dd\JJ	.	16ff\JJ)	.	.	16f\JJ	.	.	.	.	.	.	.
=33	=33	=33	=33	=33	=33	=33	=33	=33	=33	=33	=33	=33	=33	=33	=33
.	.	.	8qqdd/	.	.	.	.	8qqf/	.	.	.	.	.	.	.
4F\	.	.	4cc\	.	4ee-T\	.	2.ryy	4e-\	-mo-	2.ryy	2.ryy	2.ryy	2.ryy	2.ryy	2.ryy
4BB-/	.	.	4b-\	.	4dd\	.	.	4d\	-rum	.	.	.	.	.	.
4r	.	.	4r	.	4r	.	.	8r	.	.	.	.	.	.	.
.	.	.	.	.	.	.	.	8c\	O-	.	.	.	.	.	.
!	!	!	!LO:LB:g=original	!	!	!	!	!	!	!	!	!	!	!	!
=34	=34	=34	=34	=34	=34	=34	=34	=34	=34	=34	=34	=34	=34	=34	=34
*tremolo	*	*	*	*	*	*	*	*	*	*	*	*	*	*	*
8E-\L	6	.	8g/L	.	4.cc\	.	2.ryy	4.c\	-ra	2.ryy	2.ryy	2.ryy	2.ryy	2.ryy	2.ryy
8E-\	.	.	8g/	.	.	.	.	.	.	.	.	.	.	.	.
8E-\	.	.	8g/	.	.	.	.	.	.	.	.	.	.	.	.
8E-\	.	.	8g/J	.	16ee-\LL	.	.	8e-\	pro-	.	.	.	.	.	.
.	.	.	.	.	16dd\JJ	.	.	.	.	.	.	.	.	.	.
.	.	.	8qqf/	.	8qdd/	.	.	.	.	.	.	.	.	.	.
8E-\	.	.	8e-/L	.	8cc\L	.	.	16d\LL	-no-	.	.	.	.	.	.
.	.	.	.	.	.	.	.	16c\	.	.	.	.	.	.	.
8E-\J	.	.	16d/L	.	16b-\L	.	.	16B-\	.	.	.	.	.	.	.
.	.	.	16c/JJ	.	16a\JJ	.	.	16A\JJ	.	.	.	.	.	.	.
*Xtremolo	*	*	*	*	*	*	*	*	*	*	*	*	*	*	*
=35	=35	=35	=35	=35	=35	=35	=35	=35	=35	=35	=35	=35	=35	=35	=35
8D|\L	.	.	16d/LL	.	(16b-\LL	.	2.ryy	16B-\LL	.	2.ryy	2.ryy	2.ryy	2.ryy	2.ryy	2.ryy
.	.	.	16c/	.	16a\	.	.	16A\	.	.	.	.	.	.	.
8F|\	.	.	16e-/	.	16cc\	.	.	16c\	.	.	.	.	.	.	.
.	.	.	16c/JJ	.	16a\JJ)	.	.	16A\JJ	.	.	.	.	.	.	.
8B-|\	.	.	8d/L	.	8b-/L	.	.	4B-\	-bis	.	.	.	.	.	.
8F|\	.	.	8f/	.	8f/	.	.	.	.	.	.	.	.	.	.
8D|\	.	.	8d/	.	8d/	.	.	4r	.	.	.	.	.	.	.
8BB-|\J	.	.	8B-/J	.	8B-/J	.	.	.	.	.	.	.	.	.	.
=36	=36	=36	=36	=36	=36	=36	=36	=36	=36	=36	=36	=36	=36	=36	=36
!LO:TX:t=P:problem=mixed beam	!	!	!	!	!LO:TX:t=P:problem=mixed beam	!	!	!	!	!	!	!	!	!	!
8F\L	.	.	4c/	.	8A/L	.	2.ryy	4c\	o-	2.ryy	2.ryy	2.ryy	2.ryy	2.ryy	2.ryy
8F\	.	.	.	.	8aat\	.	.	.	.	.	.	.	.	.	.
8AA/	6	.	8ee-\L	.	8ccc\	.	.	4e-\	-ra	.	.	.	.	.	.
8AA/	.	.	8cc\	.	8ee-T\	.	.	.	.	.	.	.	.	.	.
8BB-/	.	.	8b-\	.	8dd\	.	.	4d\	pro-	.	.	.	.	.	.
8BB-/J	.	.	8dd\J	.	8bb-\J	.	.	.	.	.	.	.	.	.	.
!	!	!	!	!	!LO:LB:g=original	!	!	!	!	!	!	!	!	!	!
=37	=37	=37	=37	=37	=37	=37	=37	=37	=37	=37	=37	=37	=37	=37	=37
4FF/	.	.	4b-\	.	4dd\	.	2.ryy	4d\	-no-	2.ryy	2.ryy	2.ryy	2.ryy	2.ryy	2.ryy
4r	.	.	8a\L	.	8cc\L	.	.	4c\	-bis	.	.	.	.	.	.
.	.	.	8a\	.	8cc\	.	.	.	.	.	.	.	.	.	.
4r	.	.	8b-\	.	8ee-\	.	.	4r	.	.	.	.	.	.	.
.	.	.	8g\J	.	8cc\J	.	.	.	.	.	.	.	.	.	.
!	!	!	!	!	!	!	!	!LO:LB:g=original	!	!	!	!	!	!	!
=38	=38	=38	=38	=38	=38	=38	=38	=38	=38	=38	=38	=38	=38	=38	=38
*	*	*	*tremolo	*	*	*	*	*	*	*	*	*	*	*	*
4F\	.	.	8f/L	.	2.a\	.	2.ryy	4.c\	Sa-	2.ryy	2.ryy	2.ryy	2.ryy	2.ryy	2.ryy
.	.	.	8f/	.	.	.	.	.	.	.	.	.	.	.	.
4r	.	.	8f/	.	.	.	.	.	.	.	.	.	.	.	.
.	.	.	8f/	.	.	.	.	16Bn\LL	.	.	.	.	.	.	.
.	.	.	.	.	.	.	.	16c\JJ	.	.	.	.	.	.	.
4r	.	.	8f/	.	.	.	.	16d\LL	.	.	.	.	.	.	.
.	.	.	.	.	.	.	.	16c\	.	.	.	.	.	.	.
.	.	.	8f/J	.	.	.	.	16B\	.	.	.	.	.	.	.
.	.	.	.	.	.	.	.	16c\JJ	.	.	.	.	.	.	.
*	*	*	*Xtremolo	*	*	*	*	*	*	*	*	*	*	*	*
!LO:LB:g=original	!	!	!	!	!	!	!	!	!	!	!	!	!	!	!
=39	=39	=39	=39	=39	=39	=39	=39	=39	=39	=39	=39	=39	=39	=39	=39
4F\	.	.	8f/L	.	8a\L	.	2.ryy	8.f\L	.	2.ryy	2.ryy	2.ryy	2.ryy	2.ryy	2.ryy
.	.	.	8f/J	.	8a\J	.	.	.	.	.	.	.	.	.	.
.	.	.	.	.	.	.	.	16e-\Jk	.	.	.	.	.	.	.
*	*	*	*tremolo	*	*tremolo	*	*	*	*	*	*	*	*	*	*
4F\	.	.	8a/L	.	8cc\L	.	.	16f\LL	.	.	.	.	.	.	.
.	.	.	.	.	.	.	.	16e-\	.	.	.	.	.	.	.
.	.	.	8a/	.	8cc\	.	.	16g\	.	.	.	.	.	.	.
.	.	.	.	.	.	.	.	16f\JJ	.	.	.	.	.	.	.
4F\	.	.	8a/	.	8cc\	.	.	16e-\LL	-lus	.	.	.	.	.	.
.	.	.	.	.	.	.	.	16d\	.	.	.	.	.	.	.
.	.	.	8a/J	.	8cc\J	.	.	16c\	.	.	.	.	.	.	.
.	.	.	.	.	.	.	.	16d\JJ	.	.	.	.	.	.	.
=40	=40	=40	=40	=40	=40	=40	=40	=40	=40	=40	=40	=40	=40	=40	=40
.	.	.	.	.	.	.	.	8qqc/	.	.	.	.	.	.	.
4C/	.	.	8g/L	.	8een\L	.	2.ryy	4.B-\	Sa-	2.ryy	2.ryy	2.ryy	2.ryy	2.ryy	2.ryy
.	.	.	8g/	.	8een\	.	.	.	.	.	.	.	.	.	.
4C/	.	.	8g/	.	8een\	.	.	.	.	.	.	.	.	.	.
.	.	.	8g/	.	8een\	.	.	16A\LL	.	.	.	.	.	.	.
.	.	.	.	.	.	.	.	16B-\JJ	.	.	.	.	.	.	.
4C/	.	.	8g/	.	8een\	.	.	16c\LL	.	.	.	.	.	.	.
.	.	.	.	.	.	.	.	16B-\	.	.	.	.	.	.	.
.	.	.	8g/J	.	8een\J	.	.	16A\	.	.	.	.	.	.	.
.	.	.	.	.	.	.	.	16B-\JJ	.	.	.	.	.	.	.
=41	=41	=41	=41	=41	=41	=41	=41	=41	=41	=41	=41	=41	=41	=41	=41
4C/	.	.	8b-\L	.	8gg\L	.	2.ryy	4g\	.	2.ryy	2.ryy	2.ryy	2.ryy	2.ryy	2.ryy
.	.	.	8b-\	.	8gg\	.	.	.	.	.	.	.	.	.	.
4C/	.	.	8b-\	.	8gg\	.	.	16f\LL	.	.	.	.	.	.	.
.	.	.	.	.	.	.	.	16en\	.	.	.	.	.	.	.
.	.	.	8b-\	.	8gg\	.	.	16g\	.	.	.	.	.	.	.
.	.	.	.	.	.	.	.	16f\JJ	.	.	.	.	.	.	.
4C/	.	.	8b-\	.	8gg\	.	.	16e\LL	.	.	.	.	.	.	.
.	.	.	.	.	.	.	.	16d\	.	.	.	.	.	.	.
.	.	.	8b-\J	.	8gg\J	.	.	16c\	.	.	.	.	.	.	.
.	.	.	.	.	.	.	.	16B-\JJ	.	.	.	.	.	.	.
!	!	!	!LO:LB:g=original	!	!	!	!	!	!	!	!	!	!	!	!
=42	=42	=42	=42	=42	=42	=42	=42	=42	=42	=42	=42	=42	=42	=42	=42
4C/	.	.	8a/L	.	8ff\L	.	2.ryy	4.A\	.	2.ryy	2.ryy	2.ryy	2.ryy	2.ryy	2.ryy
.	.	.	8a/	.	8ff\	.	.	.	.	.	.	.	.	.	.
4C/	.	.	8a/	.	8ff\	.	.	.	.	.	.	.	.	.	.
.	.	.	8a/	.	8ff\	.	.	16G\LL	.	.	.	.	.	.	.
.	.	.	.	.	.	.	.	16A\JJ	.	.	.	.	.	.	.
4C/	.	.	8a/	.	8ff\	.	.	16B-\LL	.	.	.	.	.	.	.
.	.	.	.	.	.	.	.	16A\	.	.	.	.	.	.	.
.	.	.	8a/J	.	8ff\J	.	.	16G\	.	.	.	.	.	.	.
.	.	.	.	.	.	.	.	16A\JJ	.	.	.	.	.	.	.
!	!	!	!	!	!	!	!	!LO:LB:g=original	!	!	!	!	!	!	!
=43	=43	=43	=43	=43	=43	=43	=43	=43	=43	=43	=43	=43	=43	=43	=43
4C/	.	.	8a/L	.	8ff\L	.	2.ryy	4f\	.	2.ryy	2.ryy	2.ryy	2.ryy	2.ryy	2.ryy
.	.	.	8a/	.	8ff\	.	.	.	.	.	.	.	.	.	.
4C/	.	.	8a/	.	8ff\	.	.	16d\LL	.	.	.	.	.	.	.
.	.	.	.	.	.	.	.	16c\	.	.	.	.	.	.	.
.	.	.	8a/	.	8ff\	.	.	16f\	.	.	.	.	.	.	.
.	.	.	.	.	.	.	.	16e-\JJ	.	.	.	.	.	.	.
4C/	.	.	8a/	.	8ff\	.	.	16d\LL	.	.	.	.	.	.	.
.	.	.	.	.	.	.	.	16c\	.	.	.	.	.	.	.
.	.	.	8a/J	.	8ff\J	.	.	16B-\	.	.	.	.	.	.	.
.	.	.	.	.	.	.	.	16A\JJ	.	.	.	.	.	.	.
*	*	*	*	*	*Xtremolo	*	*	*	*	*	*	*	*	*	*
=44	=44	=44	=44	=44	=44	=44	=44	=44	=44	=44	=44	=44	=44	=44	=44
!	!	!	!	!	!LO:TX:t=P:problem=mixed beam	!	!	!	!	!	!	!	!	!	!
4BB-/	6	.	8g/L	.	8ff\L	.	2.ryy	4.G\	.	2.ryy	2.ryy	2.ryy	2.ryy	2.ryy	2.ryy
.	.	.	8g/	.	8dd\	.	.	.	.	.	.	.	.	.	.
4BB-/	_	.	8g/	.	8dd\	.	.	.	.	.	.	.	.	.	.
.	.	.	8g/J	.	8dd\	.	.	8d\	-lus	.	.	.	.	.	.
*	*	*	*Xtremolo	*	*	*	*	*	*	*	*	*	*	*	*
4BB-/	5	.	8d/L	.	8f/	.	.	8F/	in-	.	.	.	.	.	.
.	.	.	8d/J	.	8f/J	.	.	8F/	-fir-	.	.	.	.	.	.
=45	=45	=45	=45	=45	=45	=45	=45	=45	=45	=45	=45	=45	=45	=45	=45
4C/	.	.	8d/L	.	8f/L	.	2.ryy	8F/L	-mo-	2.ryy	2.ryy	2.ryy	2.ryy	2.ryy	2.ryy
.	.	.	8c/J	.	8e-/J	.	.	8E-/J	.	.	.	.	.	.	.
4CC/	.	.	16en/LL	.	(16cc\LL	.	.	4c\	-rum	.	.	.	.	.	.
.	.	.	16d/	.	16bn\	.	.	.	.	.	.	.	.	.	.
.	.	.	16e/	.	16cc\	.	.	.	.	.	.	.	.	.	.
.	.	.	16f/JJ	.	16dd\JJ)	.	.	.	.	.	.	.	.	.	.
!	!	!	!LO:TX:t=V&colon;S&colon;	!	!	!	!	!	!	!	!	!	!	!	!
4r	.	.	4e/	.	4cc\	.	.	4r	.	.	.	.	.	.	.
!LO:LB:g=original	!	!	!LO:LB:g=original	!	!LO:LB:g=original	!	!	!	!	!	!	!	!	!	!
=46	=46	=46	=46	=46	=46	=46	=46	=46	=46	=46	=46	=46	=46	=46	=46
4B-\	4+ 2	.	(16G/LL	.	8cc\L	.	2.ryy	8.c\L	o-	2.ryy	2.ryy	2.ryy	2.ryy	2.ryy	2.ryy
.	.	.	16c/	.	.	.	.	.	.	.	.	.	.	.	.
.	_ _	.	16e-/	.	8cc\	.	.	.	.	.	.	.	.	.	.
.	.	.	16c/JJ)	.	.	.	.	16e-\Jk	.	.	.	.	.	.	.
4B-\	.	.	(16G/LL	.	8.cc\	.	.	4c\	-ra	.	.	.	.	.	.
.	.	.	16c/	.	.	.	.	.	.	.	.	.	.	.	.
.	.	.	16e-/	.	.	.	.	.	.	.	.	.	.	.	.
.	.	.	16c/JJ)	.	16ee-\Jk	.	.	.	.	.	.	.	.	.	.
4B-\	x	.	(16G/LL	.	4cc\	.	.	8r	.	.	.	.	.	.	.
.	.	.	16c/	.	.	.	.	.	.	.	.	.	.	.	.
.	.	.	16e-/	.	.	.	.	8c\	pro-	.	.	.	.	.	.
.	.	.	16c/JJ)	.	.	.	.	.	.	.	.	.	.	.	.
=47	=47	=47	=47	=47	=47	=47	=47	=47	=47	=47	=47	=47	=47	=47	=47
4A\	6	.	(16A/LL	.	8cc\L	.	2.ryy	8.c\L	-no-	2.ryy	2.ryy	2.ryy	2.ryy	2.ryy	2.ryy
.	.	.	16c/	.	.	.	.	.	.	.	.	.	.	.	.
.	.	.	16f/	.	8cc\	.	.	.	.	.	.	.	.	.	.
.	.	.	16c/JJ)	.	.	.	.	16f\Jk	.	.	.	.	.	.	.
4A\	.	.	(16A/LL	.	8.cc\	.	.	4c\	-bis	.	.	.	.	.	.
.	.	.	16c/	.	.	.	.	.	.	.	.	.	.	.	.
.	.	.	16f/	.	.	.	.	.	.	.	.	.	.	.	.
.	.	.	16c/JJ)	.	16ff\Jk	.	.	.	.	.	.	.	.	.	.
4A\	.	.	(16A/LL	.	4cc\	.	.	8r	.	.	.	.	.	.	.
.	.	.	16c/	.	.	.	.	.	.	.	.	.	.	.	.
.	.	.	16f/	.	.	.	.	8c\	o-	.	.	.	.	.	.
.	.	.	16c/JJ)	.	.	.	.	.	.	.	.	.	.	.	.
=48	=48	=48	=48	=48	=48	=48	=48	=48	=48	=48	=48	=48	=48	=48	=48
4G\	.	.	(16B-/LL	.	8cc\L	.	2.ryy	8.c\L	.	2.ryy	2.ryy	2.ryy	2.ryy	2.ryy	2.ryy
.	.	.	16c/	.	.	.	.	.	.	.	.	.	.	.	.
.	.	.	16e-/	.	8cc\	.	.	.	.	.	.	.	.	.	.
.	.	.	16c/JJ)	.	.	.	.	16g\Jk	.	.	.	.	.	.	.
4G\	.	.	(16B-/LL	.	8.cc\	.	.	4c\	-ra	.	.	.	.	.	.
.	.	.	16c/	.	.	.	.	.	.	.	.	.	.	.	.
.	.	.	16e-/	.	.	.	.	.	.	.	.	.	.	.	.
.	.	.	16c/JJ)	.	16ff\K	.	.	.	.	.	.	.	.	.	.
!LO:TX:t=P:problem=mixed beam	!	!	!	!	!	!	!	!	!	!	!	!	!	!	!
8G\L	.	.	(16B-/LL	.	8cc\	.	.	(4B-\	pro-	.	.	.	.	.	.
.	.	.	16c/	.	.	.	.	.	.	.	.	.	.	.	.
8C/J	.	.	16e-/	.	8b-\J	.	.	.	.	.	.	.	.	.	.
.	.	.	16c/JJ)	.	.	.	.	.	.	.	.	.	.	.	.
!	!	!	!LO:LB:g=original	!	!	!	!	!LO:LB:g=original	!	!	!	!	!	!	!
=49	=49	=49	=49	=49	=49	=49	=49	=49	=49	=49	=49	=49	=49	=49	=49
8F\L	.	.	2f/	.	2a\	.	2.ryy	2A\)	-no-	2.ryy	2.ryy	2.ryy	2.ryy	2.ryy	2.ryy
8F\	.	.	.	.	.	.	.	.	.	.	.	.	.	.	.
8F\	4 2	.	.	.	.	.	.	.	.	.	.	.	.	.	.
8F\	.	.	.	.	.	.	.	.	.	.	.	.	.	.	.
8F\	.	.	4g/	.	4b-\	.	.	4B-\	-bis	.	.	.	.	.	.
8F\J	.	.	.	.	.	.	.	.	.	.	.	.	.	.	.
=50	=50	=50	=50	=50	=50	=50	=50	=50	=50	=50	=50	=50	=50	=50	=50
8F\L	5 3	.	(4a/	.	(4cc\	.	2.ryy	4c\	pro-	2.ryy	2.ryy	2.ryy	2.ryy	2.ryy	2.ryy
8F\	.	.	.	.	.	.	.	.	.	.	.	.	.	.	.
8F\	6 4	.	4b-/	.	4dd\	.	.	4.d\	-bo-	.	.	.	.	.	.
8F\	.	.	.	.	.	.	.	.	.	.	.	.	.	.	.
8F\	7 3	.	4g/)	.	4een\)	.	.	.	.	.	.	.	.	.	.
8F\J	.	.	.	.	.	.	.	8en\	.	.	.	.	.	.	.
=51	=51	=51	=51	=51	=51	=51	=51	=51	=51	=51	=51	=51	=51	=51	=51
4FF/	.	.	8.a/L	f	8.ffT\L	.	2.ryy	4f\	-bis	2.ryy	2.ryy	2.ryy	2.ryy	2.ryy	2.ryy
.	.	.	(32g/LL	.	(32een\LL	.	.	.	.	.	.	.	.	.	.
.	.	.	32a/JJJ)	.	32ff\JJJ)	.	.	.	.	.	.	.	.	.	.
4F\	4+ 2	.	4d/	.	4bn\	.	.	4r	.	.	.	.	.	.	.
4r	.	.	4r	.	4r	.	.	4r	.	.	.	.	.	.	.
!LO:LB:g=original	!	!	!	!	!	!	!	!	!	!	!	!	!	!	!
=52	=52	=52	=52	=52	=52	=52	=52	=52	=52	=52	=52	=52	=52	=52	=52
*tremolo	*	*	*	*	*	*	*	*	*	*	*	*	*	*	*
!	!	!	!	!LO:DY:rj	!	!	!	!	!	!	!	!	!	!	!
8C/L	-7	.	(16G/LL	p	2.b-X\	p	2.ryy	2.B-\	O-	2.ryy	2.ryy	2.ryy	2.ryy	2.ryy	2.ryy
.	.	.	16c/	.	.	.	.	.	.	.	.	.	.	.	.
8C/	.	.	16e-/	.	.	.	.	.	.	.	.	.	.	.	.
.	.	.	16c/JJ)	.	.	.	.	.	.	.	.	.	.	.	.
8C/	.	.	(16G/LL	.	.	.	.	.	.	.	.	.	.	.	.
.	.	.	16c/	.	.	.	.	.	.	.	.	.	.	.	.
8C/	.	.	16e-/	.	.	.	.	.	.	.	.	.	.	.	.
.	.	.	16c/JJ)	.	.	.	.	.	.	.	.	.	.	.	.
8C/	.	.	(16G/LL	.	.	.	.	.	.	.	.	.	.	.	.
.	.	.	16c/	.	.	.	.	.	.	.	.	.	.	.	.
8C/J	.	.	16e-/	.	.	.	.	.	.	.	.	.	.	.	.
.	.	.	16c/JJ)	.	.	.	.	.	.	.	.	.	.	.	.
*Xtremolo	*	*	*	*	*	*	*	*	*	*	*	*	*	*	*
!	!	!	!	!	!LO:LB:g=original	!	!	!	!	!	!	!	!	!	!
=53	=53	=53	=53	=53	=53	=53	=53	=53	=53	=53	=53	=53	=53	=53	=53
4F\	.	.	8c/L	.	8.a/L	.	2.ryy	8A\	-ra	2.ryy	2.ryy	2.ryy	2.ryy	2.ryy	2.ryy
.	.	.	16d/L	.	.	.	.	16B-\LL	pro-	.	.	.	.	.	.
.	.	.	16B-/JJ	.	32b-/LL	.	.	16G\JJ	.	.	.	.	.	.	.
.	.	.	.	.	32g/JJJ	.	.	.	.	.	.	.	.	.	.
4C/	4	.	4A/	.	4f/	.	.	4F/	-no-	.	.	.	.	.	.
4CC/	n	.	4G/	.	4en/	.	.	4En/	-bis	.	.	.	.	.	.
=54	=54	=54	=54	=54	=54	=54	=54	=54	=54	=54	=54	=54	=54	=54	=54
4FF/	.	.	(8.a/L	.	8.ff\L	.	2.ryy	2.r	.	2.ryy	2.ryy	2.ryy	2.ryy	2.ryy	2.ryy
.	.	.	32g/LL	f	32een\LL	f	.	.	.	.	.	.	.	.	.
.	.	.	32a/JJJ)	.	32ff\JJJ	.	.	.	.	.	.	.	.	.	.
4F\	4+ 2	.	4d/	.	4bn\	.	.	.	.	.	.	.	.	.	.
!	!	!	!	!	!LO:TX:t=V&colon;S&colon;	!	!	!	!	!	!	!	!	!	!
4r	.	.	4r	.	4r	.	.	.	.	.	.	.	.	.	.
!	!	!	!LO:LB:g=original	!	!LO:PB:g=original	!	!	!	!	!	!	!	!	!	!
=55	=55	=55	=55	=55	=55	=55	=55	=55	=55	=55	=55	=55	=55	=55	=55
*tremolo	*	*	*	*	*	*	*	*	*	*	*	*	*	*	*
!	!	!	!	!LO:DY:rj:t=po	!	!	!	!	!	!	!	!	!	!	!
8C/L	-7	.	(16G:/LL	p	2.b-\	p	2.ryy	2.B-\	O-	2.ryy	2.ryy	2.ryy	2.ryy	2.ryy	2.ryy
.	.	.	16c/	.	.	.	.	.	.	.	.	.	.	.	.
8C/	.	.	16e-/	.	.	.	.	.	.	.	.	.	.	.	.
.	.	.	16c/JJ)	.	.	.	.	.	.	.	.	.	.	.	.
8C/	.	.	(16G/LL	.	.	.	.	.	.	.	.	.	.	.	.
.	.	.	16c/	.	.	.	.	.	.	.	.	.	.	.	.
8C/	.	.	16e-/	.	.	.	.	.	.	.	.	.	.	.	.
.	.	.	16c/JJ)	.	.	.	.	.	.	.	.	.	.	.	.
8C/	.	.	(16G/LL	.	.	.	.	.	.	.	.	.	.	.	.
.	.	.	16c/	.	.	.	.	.	.	.	.	.	.	.	.
8C/J	.	.	16e-/	.	.	.	.	.	.	.	.	.	.	.	.
.	.	.	16c/JJ)	.	.	.	.	.	.	.	.	.	.	.	.
*Xtremolo	*	*	*	*	*	*	*	*	*	*	*	*	*	*	*
=56	=56	=56	=56	=56	=56	=56	=56	=56	=56	=56	=56	=56	=56	=56	=56
4F\	.	.	(8.c/L	.	8.a\L	f	2.ryy	8A\	-ra	2.ryy	2.ryy	2.ryy	2.ryy	2.ryy	2.ryy
.	.	.	.	.	.	.	.	16B-\LL	pro-	.	.	.	.	.	.
.	.	.	32d/LL	.	32b-\LL	.	.	16G\JJ	.	.	.	.	.	.	.
.	.	.	32B-/JJJ)	.	32g\JJJ	.	.	.	.	.	.	.	.	.	.
4C/	4	.	4A/	.	4f/	.	.	4F/	-no-	.	.	.	.	.	.
4CC/	n	.	4G/	.	4en/	.	.	4En/	.	.	.	.	.	.	.
!	!	!	!	!	!	!	!	!LO:LB:g=original	!	!	!	!	!	!	!
=57	=57	=57	=57	=57	=57	=57	=57	=57	=57	=57	=57	=57	=57	=57	=57
*tremolo	*	*	*	*	*	*	*	*	*	*	*	*	*	*	*
8FF/L	.	.	4A/	.	4f/	.	2.ryy	4F/	-bis	2.ryy	2.ryy	2.ryy	2.ryy	2.ryy	2.ryy
8FF/	.	.	.	.	.	.	.	.	.	.	.	.	.	.	.
8FF/	.	.	8r	.	8r	.	.	8r	.	.	.	.	.	.	.
!	!	!	!	!LO:DY:rj:t=pia.	!	!	!	!LO:TX:t=P:problem=mixed beam	!	!	!	!	!	!	!
8FF/J	.	.	8c/L	p	8a/L	p	.	8c\L	O-	.	.	.	.	.	.
*Xtremolo	*	*	*	*	*	*	*	*	*	*	*	*	*	*	*
8C/L	.	.	8d/	.	8b-/	.	.	8B-\	.	.	.	.	.	.	.
8C/J	.	.	8B-/J	.	8en/J	.	.	8En/J	.	.	.	.	.	.	.
=58	=58	=58	=58	=58	=58	=58	=58	=58	=58	=58	=58	=58	=58	=58	=58
*tremolo	*	*	*	*	*	*	*	*	*	*	*	*	*	*	*
8F\L	.	.	4A/	.	4f/	.	2.ryy	4F/	-ra	2.ryy	2.ryy	2.ryy	2.ryy	2.ryy	2.ryy
8F\	.	.	.	.	.	.	.	.	.	.	.	.	.	.	.
8F\	.	.	8r	.	8r	.	.	8r	.	.	.	.	.	.	.
8F\J	.	.	8c/L	.	8a/L	.	.	8c\	pro-	.	.	.	.	.	.
*Xtremolo	*	*	*	*	*	*	*	*	*	*	*	*	*	*	*
!	!	!	!	!	!	!	!	!LO:TX:t=P:problem=mixed beam	!	!	!	!	!	!	!
8C/L	.	.	8d/	.	8b-/	.	.	8B-\L	-no-	.	.	.	.	.	.
8C/J	.	.	8B-/J	.	8en/J	.	.	8En/J	.	.	.	.	.	.	.
=59	=59	=59	=59	=59	=59	=59	=59	=59	=59	=59	=59	=59	=59	=59	=59
4F\	.	.	8A/L	.	8.f/L	.	2.ryy	4F/	-bis	2.ryy	2.ryy	2.ryy	2.ryy	2.ryy	2.ryy
.	.	.	16A/L	.	.	.	.	.	.	.	.	.	.	.	.
.	.	.	16c/JJ	.	32B-/LL	.	.	.	.	.	.	.	.	.	.
.	.	.	.	.	32c/JJJ	.	.	.	.	.	.	.	.	.	.
4FF/	.	.	4A/	.	4f/	.	.	4r	.	.	.	.	.	.	.
4r	.	.	4r	.	4r	.	.	4r	.	.	.	.	.	.	.
!LO:LB:g=original	!	!	!LO:LB:g=original	!	!	!	!	!	!	!	!	!	!	!	!
=60	=60	=60	=60	=60	=60	=60	=60	=60	=60	=60	=60	=60	=60	=60	=60
*tremolo	*	*	*	*	*	*	*	*	*	*	*	*	*	*	*
!	!	!LO:DY:b:t=for.	!	!	!	!	!	!	!	!	!	!	!	!	!
8F\L	.	f	(16f/LL	f	4.ff\	f	2.ryy	0.r	.	2.ryy	2.ryy	2.ryy	2.ryy	2.ryy	2.ryy
.	.	.	16a/	.	.	.	.	.	.	.	.	.	.	.	.
8F\	.	.	16cc/	.	.	.	.	.	.	.	.	.	.	.	.
.	.	.	16a/JJ)	.	.	.	.	.	.	.	.	.	.	.	.
8F\	.	.	(16f/LL	.	.	.	.	.	.	.	.	.	.	.	.
.	.	.	16a/	.	.	.	.	.	.	.	.	.	.	.	.
8F\	.	.	16cc/	.	(16gg\LL	.	.	.	.	.	.	.	.	.	.
.	.	.	16a/JJ)	.	16ee-\JJ)	.	.	.	.	.	.	.	.	.	.
8F\	.	.	(16f/LL	.	16een\LL	.	.	.	.	.	.	.	.	.	.
.	.	.	16a/	.	16ff\	.	.	.	.	.	.	.	.	.	.
8F\J	.	.	16cc/	.	16gg\	.	.	.	.	.	.	.	.	.	.
.	.	.	16a/JJ)	.	16aa\JJ	.	.	.	.	.	.	.	.	.	.
=61	=61	=61	=61	=61	=61	=61	=61	=61	=61	=61	=61	=61	=61	=61	=61
8c\L	.	.	(16en/LL	.	2.bb-\	.	2.ryy	.	.	2.ryy	2.ryy	2.ryy	2.ryy	2.ryy	2.ryy
.	.	.	16g/	.	.	.	.	.	.	.	.	.	.	.	.
8c\	.	.	16cc/	.	.	.	.	.	.	.	.	.	.	.	.
.	.	.	16g/JJ)	.	.	.	.	.	.	.	.	.	.	.	.
8c\	.	.	(16e/LL	.	.	.	.	.	.	.	.	.	.	.	.
.	.	.	16g/	.	.	.	.	.	.	.	.	.	.	.	.
8c\	.	.	16cc/	.	.	.	.	.	.	.	.	.	.	.	.
.	.	.	16g/JJ)	.	.	.	.	.	.	.	.	.	.	.	.
8c\	.	.	(16e/LL	.	.	.	.	.	.	.	.	.	.	.	.
.	.	.	16g/	.	.	.	.	.	.	.	.	.	.	.	.
8c\J	.	.	16cc/	.	.	.	.	.	.	.	.	.	.	.	.
.	.	.	16g/JJ)	.	.	.	.	.	.	.	.	.	.	.	.
!	!	!	!	!	!LO:LB:g=original	!	!	!	!	!	!	!	!	!	!
=62	=62	=62	=62	=62	=62	=62	=62	=62	=62	=62	=62	=62	=62	=62	=62
!	!	!	!	!LO:DY:t=po.	!	!	!	!	!	!	!	!	!	!	!
8F\L	.	.	(16f/LL	p	4.aa\	.	2.ryy	.	.	2.ryy	2.ryy	2.ryy	2.ryy	2.ryy	2.ryy
.	.	.	16a/	.	.	.	.	.	.	.	.	.	.	.	.
8F\	.	.	16cc/	.	.	.	.	.	.	.	.	.	.	.	.
.	.	.	16a/JJ)	.	.	.	.	.	.	.	.	.	.	.	.
8F\	.	.	(16f/LL	.	.	.	.	.	.	.	.	.	.	.	.
.	.	.	16a/	.	.	.	.	.	.	.	.	.	.	.	.
8F\	.	.	16cc/	.	16bb-\LL	.	.	.	.	.	.	.	.	.	.
.	.	.	16a/JJ)	.	16aa\JJ	.	.	.	.	.	.	.	.	.	.
8F\	.	.	(16f/LL	.	(16gg\LL	.	.	.	.	.	.	.	.	.	.
.	.	.	16a/	.	16aa\)	.	.	.	.	.	.	.	.	.	.
8F\J	.	.	16cc/	.	16bb-\	.	.	.	.	.	.	.	.	.	.
.	.	.	16a/JJ)	.	16ccc\JJ	.	.	.	.	.	.	.	.	.	.
=63	=63	=63	=63	=63	=63	=63	=63	=63	=63	=63	=63	=63	=63	=63	=63
8d\L	.	.	(16f/LL	.	2.ddd\	.	2.ryy	.	.	2.ryy	2.ryy	2.ryy	2.ryy	2.ryy	2.ryy
.	.	.	16b-/	.	.	.	.	.	.	.	.	.	.	.	.
8d\	.	.	16dd/	.	.	.	.	.	.	.	.	.	.	.	.
.	.	.	16b-/JJ)	.	.	.	.	.	.	.	.	.	.	.	.
!	!	!	!LO:LB:g=original	!	!	!	!	!	!	!	!	!	!	!	!
8d\	.	.	(16f/LL	.	.	.	.	.	.	.	.	.	.	.	.
.	.	.	16b-/	.	.	.	.	.	.	.	.	.	.	.	.
8d\	.	.	16dd/	.	.	.	.	.	.	.	.	.	.	.	.
.	.	.	16b-/JJ)	.	.	.	.	.	.	.	.	.	.	.	.
8d\	.	.	(16f/LL	.	.	.	.	.	.	.	.	.	.	.	.
.	.	.	16b-/	.	.	.	.	.	.	.	.	.	.	.	.
8d\J	.	.	16dd/	.	.	.	.	.	.	.	.	.	.	.	.
.	.	.	16b-/JJ)	.	.	.	.	.	.	.	.	.	.	.	.
*Xtremolo	*	*	*	*	*	*	*	*	*	*	*	*	*	*	*
=64	=64	=64	=64	=64	=64	=64	=64	=64	=64	=64	=64	=64	=64	=64	=64
4F\	.	.	4a\	.	4ccc\	.	2.ryy	0.r	.	2.ryy	2.ryy	2.ryy	2.ryy	2.ryy	2.ryy
4FF/	.	.	(16ff\LL	.	(16aa\LL	.	.	.	.	.	.	.	.	.	.
.	.	.	16een\	.	16gg\	.	.	.	.	.	.	.	.	.	.
.	.	.	16dd\	.	16ff\	.	.	.	.	.	.	.	.	.	.
.	.	.	16cc\JJ)	.	16een\JJ)	.	.	.	.	.	.	.	.	.	.
4r	.	.	(16dd\LL	.	(16ff\LL	.	.	.	.	.	.	.	.	.	.
.	.	.	16cc\	.	16ee\	.	.	.	.	.	.	.	.	.	.
.	.	.	16b-\	.	16dd\	.	.	.	.	.	.	.	.	.	.
.	.	.	16a\JJ)	.	16cc\JJ)	.	.	.	.	.	.	.	.	.	.
=65	=65	=65	=65	=65	=65	=65	=65	=65	=65	=65	=65	=65	=65	=65	=65
!	!	!	!	!	!LO:TX:a:t=t	!	!	!	!	!	!	!	!	!	!
4C\	7	.	4g/	.	4b-\	.	2.ryy	.	.	2.ryy	2.ryy	2.ryy	2.ryy	2.ryy	2.ryy
4F\	.	.	4f/	.	4a\	.	.	.	.	.	.	.	.	.	.
4r	.	.	4r	.	4r	.	.	.	.	.	.	.	.	.	.
=66	=66	=66	=66	=66	=66	=66	=66	=66	=66	=66	=66	=66	=66	=66	=66
*tremolo	*	*	*	*	*	*	*	*	*	*	*	*	*	*	*
.	.	.	.	.	8qqff#X/	.	.	.	.	.	.	.	.	.	.
8B-\L	6	.	4.dd\	.	4.gg\	.	2.ryy	.	.	2.ryy	2.ryy	2.ryy	2.ryy	2.ryy	2.ryy
8B-\	.	.	.	.	.	.	.	.	.	.	.	.	.	.	.
8B-\	.	.	.	.	.	.	.	.	.	.	.	.	.	.	.
8B-\	.	.	16dd\LL	.	(16bb-\LL	.	.	.	.	.	.	.	.	.	.
.	.	.	16cc\JJ	.	16aa\JJ)	.	.	.	.	.	.	.	.	.	.
.	.	.	8qcc/	.	8qaa/	.	.	.	.	.	.	.	.	.	.
8B-\	.	.	8b-\L	.	(8gg\L	.	.	.	.	.	.	.	.	.	.
8B-\J	.	.	16a\L	.	16ffn\L	.	.	.	.	.	.	.	.	.	.
.	.	.	16g\JJ	.	16een\JJ)	.	.	.	.	.	.	.	.	.	.
*Xtremolo	*	*	*	*	*	*	*	*	*	*	*	*	*	*	*
=67	=67	=67	=67	=67	=67	=67	=67	=67	=67	=67	=67	=67	=67	=67	=67
8A'\L	.	.	(16a/LL	.	(16ff\LL	.	2.ryy	.	.	2.ryy	2.ryy	2.ryy	2.ryy	2.ryy	2.ryy
.	.	.	16g/	.	16een\	.	.	.	.	.	.	.	.	.	.
8c'\	.	.	16b-/	.	16gg\	.	.	.	.	.	.	.	.	.	.
.	.	.	16g/JJ)	.	16ee\JJ)	.	.	.	.	.	.	.	.	.	.
8F'\	.	.	8a/L	.	8ff\L	.	.	.	.	.	.	.	.	.	.
8c'\	.	.	8cc/	.	8cc\	.	.	.	.	.	.	.	.	.	.
8A'\	.	.	8a/	.	8a\	.	.	.	.	.	.	.	.	.	.
8F'\J	.	.	8f/J	.	8f\J	.	.	.	.	.	.	.	.	.	.
!	!	!	!	!	!LO:LB:g=original	!	!	!	!	!	!	!	!	!	!
=68	=68	=68	=68	=68	=68	=68	=68	=68	=68	=68	=68	=68	=68	=68	=68
!	!	!	!	!	!LO:TX:t=P:problem=mixed beam	!	!	!	!	!	!	!	!	!	!
8C\L	.	.	4c/	.	8en/L	.	2.ryy	0.r	.	2.ryy	2.ryy	2.ryy	2.ryy	2.ryy	2.ryy
8C\	.	.	.	.	8gg\	.	.	.	.	.	.	.	.	.	.
8En\	6	.	8gg\L	.	8bb-\	.	.	.	.	.	.	.	.	.	.
8E\J	.	.	8b-\	.	8een\	.	.	.	.	.	.	.	.	.	.
!LO:LB:g=original	!	!	!	!	!	!	!	!	!	!	!	!	!	!	!
8F\L	3	.	8a\	.	8ff\	.	.	.	.	.	.	.	.	.	.
8F\J	.	.	8ff\J	.	8aa\J	.	.	.	.	.	.	.	.	.	.
!	!	!	!LO:LB:g=original	!	!	!	!	!	!	!	!	!	!	!	!
=69	=69	=69	=69	=69	=69	=69	=69	=69	=69	=69	=69	=69	=69	=69	=69
!LO:TX:t=P:problem=mixed beam	!	!	!	!	!	!	!	!	!	!	!	!	!	!	!
8c|\L	.	.	4ff\	.	4aat\	.	2.ryy	.	.	2.ryy	2.ryy	2.ryy	2.ryy	2.ryy	2.ryy
8C|/	.	.	.	.	.	.	.	.	.	.	.	.	.	.	.
8c|\	.	.	4een\	.	4gg\	.	.	.	.	.	.	.	.	.	.
8G|\	.	.	.	.	.	.	.	.	.	.	.	.	.	.	.
8En|\	.	.	4r	.	4r	.	.	.	.	.	.	.	.	.	.
8C|\J	.	.	.	.	.	.	.	.	.	.	.	.	.	.	.
=70	=70	=70	=70	=70	=70	=70	=70	=70	=70	=70	=70	=70	=70	=70	=70
!	!	!	!	!LO:HP:a:t=cresc&colon;	!	!LO:HP:a:t=crescendo	!	!	!	!	!	!	!	!	!
8F\L	.	.	(2f/	<	2a\	<	2.ryy	.	.	2.ryy	2.ryy	2.ryy	2.ryy	2.ryy	2.ryy
8F\	.	.	.	.	.	.	.	.	.	.	.	.	.	.	.
8F\	4 2	.	.	.	.	.	.	.	.	.	.	.	.	.	.
8F\	.	.	.	.	.	.	.	.	.	.	.	.	.	.	.
8F\	.	.	4g/)	.	4b-\	.	.	.	.	.	.	.	.	.	.
8F\J	.	.	.	.	.	.	.	.	.	.	.	.	.	.	.
=71	=71	=71	=71	=71	=71	=71	=71	=71	=71	=71	=71	=71	=71	=71	=71
8F\L	5 3	.	(4a/	.	4cc\	.	2.ryy	.	.	2.ryy	2.ryy	2.ryy	2.ryy	2.ryy	2.ryy
8F\	.	.	.	.	.	.	.	.	.	.	.	.	.	.	.
8F\	6 4	.	4b-/	.	4dd\	.	.	.	.	.	.	.	.	.	.
8F\	.	.	.	.	.	.	.	.	.	.	.	.	.	.	.
8C\	7	.	4g/)	.	4een\	.	.	.	.	.	.	.	.	.	.
8C\J	.	.	.	.	.	.	.	.	.	.	.	.	.	.	.
=72	=72	=72	=72	=72	=72	=72	=72	=72	=72	=72	=72	=72	=72	=72	=72
4FF/	4+ 2	.	(8.a/L	f	8.ff\L	.	2.ryy	0.r	.	2.ryy	2.ryy	2.ryy	2.ryy	2.ryy	2.ryy
.	.	.	32g/LL	.	32een\LL	f	.	.	.	.	.	.	.	.	.
.	.	.	32a/JJJ)	.	32ff\JJJ	.	.	.	.	.	.	.	.	.	.
4F\	.	.	4d/	.	4bn\	.	.	.	.	.	.	.	.	.	.
4r	.	.	4r	.	4r	.	.	.	.	.	.	.	.	.	.
=73	=73	=73	=73	=73	=73	=73	=73	=73	=73	=73	=73	=73	=73	=73	=73
*tremolo	*	*	*	*	*	*	*	*	*	*	*	*	*	*	*
!	!	!	!	!LO:DY:rj:t=po	!	!	!	!	!	!	!	!	!	!	!
8C/L	-7	.	(16G/LL	p	2.b-X\	.	2.ryy	.	.	2.ryy	2.ryy	2.ryy	2.ryy	2.ryy	2.ryy
.	.	.	16c/	.	.	.	.	.	.	.	.	.	.	.	.
8C/	.	.	16e-/	.	.	.	.	.	.	.	.	.	.	.	.
.	.	.	16c/JJ)	.	.	.	.	.	.	.	.	.	.	.	.
8C/	.	.	(16G/LL	.	.	.	.	.	.	.	.	.	.	.	.
.	.	.	16c/	.	.	.	.	.	.	.	.	.	.	.	.
8C/	.	.	16e-/	.	.	.	.	.	.	.	.	.	.	.	.
.	.	.	16c/JJ)	.	.	.	.	.	.	.	.	.	.	.	.
8C/	.	.	(16G/LL	.	.	.	.	.	.	.	.	.	.	.	.
.	.	.	16c/	.	.	.	.	.	.	.	.	.	.	.	.
8C/J	.	.	16e-/	.	.	.	.	.	.	.	.	.	.	.	.
.	.	.	16c/JJ)	.	.	.	.	.	.	.	.	.	.	.	.
*Xtremolo	*	*	*	*	*	*	*	*	*	*	*	*	*	*	*
=74	=74	=74	=74	=74	=74	=74	=74	=74	=74	=74	=74	=74	=74	=74	=74
4F\	5	.	8.c/L	.	8a/L	.	2.ryy	.	.	2.ryy	2.ryy	2.ryy	2.ryy	2.ryy	2.ryy
.	.	.	.	.	16b-/L	.	.	.	.	.	.	.	.	.	.
.	.	.	32d/LL	.	16g/JJ	.	.	.	.	.	.	.	.	.	.
.	.	.	32G/JJJ	.	.	.	.	.	.	.	.	.	.	.	.
4C/	4	.	4A/	.	4f/	.	.	.	.	.	.	.	.	.	.
4CC/	n	.	4G/	.	4en/	.	.	.	.	.	.	.	.	.	.
!	!	!	!LO:LB:g=original	!	!	!	!	!	!	!	!	!	!	!	!
=75	=75	=75	=75	=75	=75	=75	=75	=75	=75	=75	=75	=75	=75	=75	=75
4FF/	.	.	8.ff\L	f	8.ff\L	.	2.ryy	.	.	2.ryy	2.ryy	2.ryy	2.ryy	2.ryy	2.ryy
.	.	.	32een\LL	.	32een\LL	f	.	.	.	.	.	.	.	.	.
.	.	.	32ff\JJJ	.	32ff\JJJ	.	.	.	.	.	.	.	.	.	.
4F\	4+ 2	.	4d/	.	4bn\	.	.	.	.	.	.	.	.	.	.
4r	.	.	4r	.	4r	.	.	.	.	.	.	.	.	.	.
!LO:LB:g=original	!	!	!	!	!LO:LB:g=original	!	!	!	!	!	!	!	!	!	!
=76	=76	=76	=76	=76	=76	=76	=76	=76	=76	=76	=76	=76	=76	=76	=76
*tremolo	*	*	*	*	*	*	*	*	*	*	*	*	*	*	*
!	!	!	!	!LO:DY:t=po.	!	!	!	!	!	!	!	!	!	!	!
8C/L	-7	.	(16en/LL	p	4b-X\	p	2.ryy	0.r	.	2.ryy	2.ryy	2.ryy	2.ryy	2.ryy	2.ryy
.	.	.	16g/	.	.	.	.	.	.	.	.	.	.	.	.
8C/	.	.	16cc/	.	.	.	.	.	.	.	.	.	.	.	.
.	.	.	16g/JJ)	.	.	.	.	.	.	.	.	.	.	.	.
8C/	.	.	(16e/LL	.	2bb-\	.	.	.	.	.	.	.	.	.	.
.	.	.	16g/	.	.	.	.	.	.	.	.	.	.	.	.
8C/	.	.	16cc/	.	.	.	.	.	.	.	.	.	.	.	.
.	.	.	16g/JJ)	.	.	.	.	.	.	.	.	.	.	.	.
8C/	.	.	(16e/LL	.	.	.	.	.	.	.	.	.	.	.	.
.	.	.	16g/	.	.	.	.	.	.	.	.	.	.	.	.
8C/J	.	.	16cc/	.	.	.	.	.	.	.	.	.	.	.	.
.	.	.	16g/JJ)	.	.	.	.	.	.	.	.	.	.	.	.
*Xtremolo	*	*	*	*	*	*	*	*	*	*	*	*	*	*	*
=77	=77	=77	=77	=77	=77	=77	=77	=77	=77	=77	=77	=77	=77	=77	=77
4F\	.	.	(8.cc\L	.	8aa\L	.	2.ryy	.	.	2.ryy	2.ryy	2.ryy	2.ryy	2.ryy	2.ryy
.	.	.	.	.	16bb-\L	.	.	.	.	.	.	.	.	.	.
.	.	.	32dd\LL	.	16gg\JJ	.	.	.	.	.	.	.	.	.	.
.	.	.	32b-\JJJ)	.	.	.	.	.	.	.	.	.	.	.	.
4C/	4	.	4a\	f	4ff\	.	.	.	.	.	.	.	.	.	.
4CC/	n	.	4g\	.	4een\	.	.	.	.	.	.	.	.	.	.
=78	=78	=78	=78	=78	=78	=78	=78	=78	=78	=78	=78	=78	=78	=78	=78
*tremolo	*	*	*	*	*	*	*	*	*	*	*	*	*	*	*
!	!	!	!	!	!	!LO:DY:rj	!	!	!	!	!	!	!	!	!
8FF/L	.	.	4a\	.	4ff\	f	2.ryy	.	.	2.ryy	2.ryy	2.ryy	2.ryy	2.ryy	2.ryy
8FF/	.	.	.	.	.	.	.	.	.	.	.	.	.	.	.
8FF/	.	.	8r	.	8r	.	.	.	.	.	.	.	.	.	.
!	!	!	!	!LO:DY:t=po.	!	!	!	!	!	!	!	!	!	!	!
8FF/J	.	.	8cc|\L	p	8aa\L	p	.	.	.	.	.	.	.	.	.
*Xtremolo	*	*	*	*	*	*	*	*	*	*	*	*	*	*	*
8C/L	7	.	(8dd\	.	(8bb-\	.	.	.	.	.	.	.	.	.	.
8C/J	.	.	8b-\J)	.	8een\J)	.	.	.	.	.	.	.	.	.	.
=79	=79	=79	=79	=79	=79	=79	=79	=79	=79	=79	=79	=79	=79	=79	=79
*tremolo	*	*	*	*	*	*	*	*	*	*	*	*	*	*	*
8F\L	.	.	4a\	f	4ff\	f	2.ryy	.	.	2.ryy	2.ryy	2.ryy	2.ryy	2.ryy	2.ryy
8F\	.	.	.	.	.	.	.	.	.	.	.	.	.	.	.
8F\	.	.	8r	.	8r	.	.	.	.	.	.	.	.	.	.
8F\J	.	.	8cc|\L	p	8aa\L	p	.	.	.	.	.	.	.	.	.
*Xtremolo	*	*	*	*	*	*	*	*	*	*	*	*	*	*	*
8C/L	7	.	(8dd\	.	(8bb-\	.	.	.	.	.	.	.	.	.	.
8C/J	.	.	8b-\J)	.	8een\J)	.	.	.	.	.	.	.	.	.	.
!	!	!	!LO:LB:g=original	!	!	!	!	!	!	!	!	!	!	!	!
=80	=80	=80	=80	=80	=80	=80	=80	=80	=80	=80	=80	=80	=80	=80	=80
8F\L	.	.	8.a\L	f	8.ff\L	f	2.ryy	2.r	.	2.ryy	2.ryy	2.ryy	2.ryy	2.ryy	2.ryy
8C\J	.	.	.	.	.	.	.	.	.	.	.	.	.	.	.
.	.	.	32cc\LL	.	32cc\LL	.	.	.	.	.	.	.	.	.	.
.	.	.	32a\JJJ	.	32a\JJJ	.	.	.	.	.	.	.	.	.	.
4FF/	.	.	4f/ 4A/	.	8f/	.	.	.	.	.	.	.	.	.	.
.	.	.	.	.	8ryy	.	.	.	.	.	.	.	.	.	.
4r	.	.	4r	.	4r	.	.	.	.	.	.	.	.	.	.
=81	=81	=81	=81	=81	=81	=81	=81	=81	=81	=81	=81	=81	=81	=81	=81
*tremolo	*	*	*	*	*	*	*	*	*	*	*	*	*	*	*
!	!	!LO:DY:b:t=po.	!	!	!	!	!	!	!	!	!	!	!	!	!
8F\L	.	p	(16A/LL	.	4.f/	p	2.ryy	4.F/	Sa-	2.ryy	2.ryy	2.ryy	2.ryy	2.ryy	2.ryy
!	!	!	!	!LO:DY:t=po	!	!	!	!	!	!	!	!	!	!	!
.	.	.	16c/	p	.	.	.	.	.	.	.	.	.	.	.
8F\	.	.	16f/	.	.	.	.	.	.	.	.	.	.	.	.
.	.	.	16c/JJ)	.	.	.	.	.	.	.	.	.	.	.	.
8F\	.	.	(16A/LL	.	.	.	.	.	.	.	.	.	.	.	.
.	.	.	16c/	.	.	.	.	.	.	.	.	.	.	.	.
8F\	.	.	16f/	.	16g/LL	.	.	16G/LL	.	.	.	.	.	.	.
.	.	.	16c/JJ)	.	16f/JJ	.	.	16F/JJ	.	.	.	.	.	.	.
8F\	.	.	(16A/LL	.	16en/LL	.	.	16En/LL	.	.	.	.	.	.	.
.	.	.	16c/	.	16f/	.	.	16F/	.	.	.	.	.	.	.
8F\J	.	.	16f/	.	16g/	.	.	16G/	.	.	.	.	.	.	.
.	.	.	16c/JJ)	.	16a/JJ	.	.	16A/JJ	.	.	.	.	.	.	.
!	!	!	!	!	!LO:LB:g=original	!	!	!	!	!	!	!	!	!	!
=82	=82	=82	=82	=82	=82	=82	=82	=82	=82	=82	=82	=82	=82	=82	=82
8C\L	.	.	(16G/LL	.	2.b-X\	f	2.ryy	2.B-\	-lus	2.ryy	2.ryy	2.ryy	2.ryy	2.ryy	2.ryy
.	.	.	16c/	.	.	.	.	.	.	.	.	.	.	.	.
8C\	.	.	16en/	.	.	.	.	.	.	.	.	.	.	.	.
.	.	.	16c/JJ)	.	.	.	.	.	.	.	.	.	.	.	.
8C\	.	.	(16G/LL	.	.	.	.	.	.	.	.	.	.	.	.
.	.	.	16c/	.	.	.	.	.	.	.	.	.	.	.	.
8C\	.	.	16e/	.	.	.	.	.	.	.	.	.	.	.	.
.	.	.	16c/JJ)	.	.	.	.	.	.	.	.	.	.	.	.
8C\	.	.	(16G/LL	.	.	.	.	.	.	.	.	.	.	.	.
.	.	.	16c/	.	.	.	.	.	.	.	.	.	.	.	.
8C\J	.	.	16e/	.	.	.	.	.	.	.	.	.	.	.	.
.	.	.	16c/JJ)	.	.	.	.	.	.	.	.	.	.	.	.
!	!	!	!	!	!	!	!	!LO:LB:g=original	!	!	!	!	!	!	!
=83	=83	=83	=83	=83	=83	=83	=83	=83	=83	=83	=83	=83	=83	=83	=83
8F\L	.	.	(16A/LL	.	4.a\	.	2.ryy	4.A\	in-	2.ryy	2.ryy	2.ryy	2.ryy	2.ryy	2.ryy
.	.	.	16c/	.	.	.	.	.	.	.	.	.	.	.	.
8F\	.	.	16f/	.	.	.	.	.	.	.	.	.	.	.	.
.	.	.	16c/JJ)	.	.	.	.	.	.	.	.	.	.	.	.
!	!	!	!LO:LB:g=original	!	!	!	!	!	!	!	!	!	!	!	!
8F\	.	.	(16A/LL	.	.	.	.	.	.	.	.	.	.	.	.
.	.	.	16c/	.	.	.	.	.	.	.	.	.	.	.	.
8F\	.	.	16f/	.	16b-\LL	p	.	16B-\LL	-fir-	.	.	.	.	.	.
.	.	.	16c/JJ)	.	16a\JJ	.	.	16A\JJ	.	.	.	.	.	.	.
8F\	.	.	(16A/LL	.	16g\LL	.	.	16G\LL	-mo-	.	.	.	.	.	.
.	.	.	16c/	.	16a\	.	.	16A\	.	.	.	.	.	.	.
8F\J	.	.	16f/	.	16b-\	.	.	16B-\	.	.	.	.	.	.	.
.	.	.	16c/JJ)	.	16cc\JJ	.	.	16c\JJ	.	.	.	.	.	.	.
=84	=84	=84	=84	=84	=84	=84	=84	=84	=84	=84	=84	=84	=84	=84	=84
8BB-/L	.	.	(16B-/LL	.	2.dd\	f	2.ryy	2d\	-rum	2.ryy	2.ryy	2.ryy	2.ryy	2.ryy	2.ryy
.	.	.	16d/	.	.	.	.	.	.	.	.	.	.	.	.
8BB-/	.	.	16f/	.	.	.	.	.	.	.	.	.	.	.	.
.	.	.	16d/JJ)	.	.	.	.	.	.	.	.	.	.	.	.
8BB-/	.	.	(16B-/LL	.	.	.	.	.	.	.	.	.	.	.	.
.	.	.	16d/	.	.	.	.	.	.	.	.	.	.	.	.
8BB-/	.	.	16f/	.	.	.	.	.	.	.	.	.	.	.	.
.	.	.	16d/JJ)	.	.	.	.	.	.	.	.	.	.	.	.
8BB-/	.	.	(16B-/LL	.	.	.	.	4d\	o-	.	.	.	.	.	.
.	.	.	16d/	.	.	.	.	.	.	.	.	.	.	.	.
8BB-/J	.	.	16f/	.	.	.	.	.	.	.	.	.	.	.	.
.	.	.	16d/JJ)	.	.	.	.	.	.	.	.	.	.	.	.
*Xtremolo	*	*	*	*	*	*	*	*	*	*	*	*	*	*	*
=85	=85	=85	=85	=85	=85	=85	=85	=85	=85	=85	=85	=85	=85	=85	=85
*	*	*	*tremolo	*	*	*	*	*	*	*	*	*	*	*	*
4F\	.	.	8a/L	.	4.cc\	.	2.ryy	4.c\	-ra	2.ryy	2.ryy	2.ryy	2.ryy	2.ryy	2.ryy
!	!	!	!	!	!	!LO:DY:t=pia&colon;	!	!	!	!	!	!	!	!	!
.	.	.	8a/	.	.	p	.	.	.	.	.	.	.	.	.
4FF/	.	.	8a/	.	.	.	.	.	.	.	.	.	.	.	.
.	.	.	8a/	.	(16cc\LL	.	.	16d\LL	o-	.	.	.	.	.	.
.	.	.	.	.	16b-\JJ)	.	.	16c\JJ	.	.	.	.	.	.	.
4F\	.	.	8a/	.	(16ff\LL	.	.	16f\LL	-ra	.	.	.	.	.	.
.	.	.	.	.	16ee-\	.	.	16en\JJ	.	.	.	.	.	.	.
.	.	.	8a/J	.	16dd\	.	.	16d\LL	pro-	.	.	.	.	.	.
.	.	.	.	.	16cc\JJ)	.	.	16c\JJ	.	.	.	.	.	.	.
*	*	*	*Xtremolo	*	*	*	*	*	*	*	*	*	*	*	*
=86	=86	=86	=86	=86	=86	=86	=86	=86	=86	=86	=86	=86	=86	=86	=86
.	.	.	.	.	.	.	.	8qqc/	.	.	.	.	.	.	.
4C/	.	.	8g/L	.	4b-\	.	2.ryy	4B-\	-no-	2.ryy	2.ryy	2.ryy	2.ryy	2.ryy	2.ryy
.	.	.	8c/J	.	.	.	.	.	.	.	.	.	.	.	.
4F\	.	.	(16A/LL	.	8a\L	.	.	4A\	-bis	.	.	.	.	.	.
.	.	.	16c/	.	.	.	.	.	.	.	.	.	.	.	.
.	.	.	16f/	.	8a\	.	.	.	.	.	.	.	.	.	.
.	.	.	16c/JJ)	.	.	.	.	.	.	.	.	.	.	.	.
4r	.	.	(16A/LL	.	8a\	.	.	8r	.	.	.	.	.	.	.
.	.	.	16c/	.	.	.	.	.	.	.	.	.	.	.	.
.	.	.	16f/	.	8a\J	.	.	8f\	O-	.	.	.	.	.	.
.	.	.	16c/JJ)	.	.	.	.	.	.	.	.	.	.	.	.
!LO:LB:g=original	!	!	!LO:LB:g=original	!	!	!	!	!	!	!	!	!	!	!	!
=87	=87	=87	=87	=87	=87	=87	=87	=87	=87	=87	=87	=87	=87	=87	=87
*tremolo	*	*	*	*	*tremolo	*	*	*	*	*	*	*	*	*	*
!LO:SIC:s:v=es?	!	!	!	!	!	!	!	!	!	!	!	!	!	!	!
8En\L	4+ 2	.	(16A/LL	.	8ff\L	.	2.ryy	2A\	-ra	2.ryy	2.ryy	2.ryy	2.ryy	2.ryy	2.ryy
.	.	.	16e-X/	.	.	.	.	.	.	.	.	.	.	.	.
8En\	.	.	16f/	.	8ff\	.	.	.	.	.	.	.	.	.	.
.	.	.	16e-/JJ)	.	.	.	.	.	.	.	.	.	.	.	.
8En\	.	.	(16A/LL	.	8ff\	.	.	.	.	.	.	.	.	.	.
.	.	.	16e-X/	.	.	.	.	.	.	.	.	.	.	.	.
8En\	.	.	16f/	.	8ff\	.	.	.	.	.	.	.	.	.	.
.	.	.	16e-/JJ)	.	.	.	.	.	.	.	.	.	.	.	.
8En\	.	.	(16A/LL	.	8ff\	.	.	4A\	pro-	.	.	.	.	.	.
.	.	.	16e-X/	.	.	.	.	.	.	.	.	.	.	.	.
8En\J	.	.	16f/	.	8ff\J	.	.	.	.	.	.	.	.	.	.
.	.	.	16e-/JJ)	.	.	.	.	.	.	.	.	.	.	.	.
!	!	!	!	!	!	!	!	!LO:PB:g=original	!	!	!	!	!	!	!
=88	=88	=88	=88	=88	=88	=88	=88	=88	=88	=88	=88	=88	=88	=88	=88
8D\L	6	.	(16d/LL	.	8ff\L	.	2.ryy	16B-\LL	-no-	2.ryy	2.ryy	2.ryy	2.ryy	2.ryy	2.ryy
.	.	.	16f/	.	.	.	.	16A\	.	.	.	.	.	.	.
8D\	.	.	16b-/	.	8ff\	.	.	16c\	.	.	.	.	.	.	.
.	.	.	16f/JJ)	.	.	.	.	16A\JJ	.	.	.	.	.	.	.
8D\	.	.	(16d/LL	.	8ff\	.	.	4B-\	-bis	.	.	.	.	.	.
.	.	.	16f/	.	.	.	.	.	.	.	.	.	.	.	.
8D\	.	.	16b-/	.	8ff\	.	.	.	.	.	.	.	.	.	.
.	.	.	16f/JJ)	.	.	.	.	.	.	.	.	.	.	.	.
8D\	.	.	(16d/LL	.	8ff\	.	.	8r	.	.	.	.	.	.	.
.	.	.	16f/	.	.	.	.	.	.	.	.	.	.	.	.
8D\J	.	.	16b-/	.	8ff\J	.	.	8f\	O-	.	.	.	.	.	.
.	.	.	16f/JJ)	.	.	.	.	.	.	.	.	.	.	.	.
=89	=89	=89	=89	=89	=89	=89	=89	=89	=89	=89	=89	=89	=89	=89	=89
8F\L	.	.	(16e-X/LL	.	8aa\L	.	2.ryy	2c\	-ra	2.ryy	2.ryy	2.ryy	2.ryy	2.ryy	2.ryy
.	.	.	16f/	.	.	.	.	.	.	.	.	.	.	.	.
8F\	.	.	16cc/	.	8aa\	.	.	.	.	.	.	.	.	.	.
.	.	.	16f/JJ)	.	.	.	.	.	.	.	.	.	.	.	.
8F\	.	.	(16e-/LL	.	8aa\	.	.	.	.	.	.	.	.	.	.
.	.	.	16f/	.	.	.	.	.	.	.	.	.	.	.	.
8F\	.	.	16cc/	.	8aa\	.	.	.	.	.	.	.	.	.	.
.	.	.	16f/JJ)	.	.	.	.	.	.	.	.	.	.	.	.
8F\	.	.	(16e-/LL	.	8aa\	.	.	4e-X\	pro-	.	.	.	.	.	.
.	.	.	16f/	.	.	.	.	.	.	.	.	.	.	.	.
8F\J	.	.	16cc/	.	8aa\J	.	.	.	.	.	.	.	.	.	.
.	.	.	16f/JJ)	.	.	.	.	.	.	.	.	.	.	.	.
*Xtremolo	*	*	*	*	*Xtremolo	*	*	*	*	*	*	*	*	*	*
!	!	!	!LO:LB:g=original	!	!	!	!	!	!	!	!	!	!	!	!
=90	=90	=90	=90	=90	=90	=90	=90	=90	=90	=90	=90	=90	=90	=90	=90
8B-\L	.	.	(16e-/LL	.	16aa\KL	.	2.ryy	8.e-\L	-no-	2.ryy	2.ryy	2.ryy	2.ryy	2.ryy	2.ryy
.	.	.	16f/	.	8.bb-\J	.	.	.	.	.	.	.	.	.	.
8B-\J	.	.	16cc/	.	.	.	.	.	.	.	.	.	.	.	.
.	.	.	16f/JJ)	.	.	.	.	16d\Jk	.	.	.	.	.	.	.
4B-\	.	.	8d/L	.	8bb-|\L	.	.	8d\	-bis	.	.	.	.	.	.
.	.	.	8f/	.	8ff|\	.	.	8f\	o-	.	.	.	.	.	.
4r	.	.	8d/	.	8dd|\	.	.	8d\	-ra	.	.	.	.	.	.
.	.	.	8B-/J	.	8b-|\J	.	.	8B-\	pro-	.	.	.	.	.	.
!	!	!	!	!	!LO:LB:g=original	!	!	!	!	!	!	!	!	!	!
=91	=91	=91	=91	=91	=91	=91	=91	=91	=91	=91	=91	=91	=91	=91	=91
4F\	.	.	4f/	.	4f/	.	2.ryy	4F/	-no-	2.ryy	2.ryy	2.ryy	2.ryy	2.ryy	2.ryy
8r	.	.	8r	.	8r	.	.	4F/	-bis	.	.	.	.	.	.
8f'\L	.	.	8ff\L	f	8ff\L	f	.	.	.	.	.	.	.	.	.
8d'\	.	.	8dd\	.	8dd\	.	.	4r	.	.	.	.	.	.	.
8B-'\J	.	.	8b-\J	.	8b-\J	.	.	.	.	.	.	.	.	.	.
=92	=92	=92	=92	=92	=92	=92	=92	=92	=92	=92	=92	=92	=92	=92	=92
8F\L	.	.	8f/L	.	8.f/L	.	2.ryy	2.r	.	2.ryy	2.ryy	2.ryy	2.ryy	2.ryy	2.ryy
8C\J	.	.	16A/L	.	.	.	.	.	.	.	.	.	.	.	.
.	.	.	16c/JJ	.	32A/LL	.	.	.	.	.	.	.	.	.	.
.	.	.	.	.	32c/JJJ	.	.	.	.	.	.	.	.	.	.
4FF/	.	.	4A/	.	4f/ 4A/	.	.	.	.	.	.	.	.	.	.
4r	.	.	4r	.	4r	.	.	.	.	.	.	.	.	.	.
=93	=93	=93	=93	=93	=93	=93	=93	=93	=93	=93	=93	=93	=93	=93	=93
*tremolo	*	*	*	*	*	*	*	*	*	*	*	*	*	*	*
!	!	!LO:DY:b:t=po&colon;	!	!LO:DY:rj:t=po	!	!	!	!	!	!	!	!	!	!	!
8BB-/L	.	p	(16B-/LL	p	4.b-\	p	2.ryy	4.B-\	con-	2.ryy	2.ryy	2.ryy	2.ryy	2.ryy	2.ryy
.	.	.	16d/	.	.	.	.	.	.	.	.	.	.	.	.
8BB-/	.	.	16f/	.	.	.	.	.	.	.	.	.	.	.	.
.	.	.	16d/JJ)	.	.	.	.	.	.	.	.	.	.	.	.
8BB-/	.	.	(16B-/LL	.	.	.	.	.	.	.	.	.	.	.	.
.	.	.	16d/	.	.	.	.	.	.	.	.	.	.	.	.
8BB-/	.	.	16f/	.	(16cc\LL	.	.	16c\LL	-so-	.	.	.	.	.	.
.	.	.	16d/JJ)	.	16b-\JJ)	.	.	16B-\JJ	.	.	.	.	.	.	.
8BB-/	.	.	(16B-/LL	.	(16a\LL	.	.	16A\LL	-la-	.	.	.	.	.	.
.	.	.	16d/	.	16b-\	.	.	16B-\	.	.	.	.	.	.	.
8BB-/J	.	.	16f/	.	16cc\	.	.	16c\	.	.	.	.	.	.	.
.	.	.	16d/JJ)	.	16dd\JJ)	.	.	16d\JJ	.	.	.	.	.	.	.
!	!	!	!	!	!	!	!	!LO:LB:g=original	!	!	!	!	!	!	!
=94	=94	=94	=94	=94	=94	=94	=94	=94	=94	=94	=94	=94	=94	=94	=94
8F\L	.	.	(16A/LL	.	2.ee-\	.	2.ryy	2.e-\	-trix	2.ryy	2.ryy	2.ryy	2.ryy	2.ryy	2.ryy
.	.	.	16c/	.	.	.	.	.	.	.	.	.	.	.	.
8F\	.	.	16f/	.	.	.	.	.	.	.	.	.	.	.	.
.	.	.	16c/JJ)	.	.	.	.	.	.	.	.	.	.	.	.
!	!	!	!LO:LB:g=original	!	!	!	!	!	!	!	!	!	!	!	!
8F\	.	.	(16A/LL	.	.	.	.	.	.	.	.	.	.	.	.
.	.	.	16c/	.	.	.	.	.	.	.	.	.	.	.	.
8F\	.	.	16f/	.	.	.	.	.	.	.	.	.	.	.	.
.	.	.	16c/JJ)	.	.	.	.	.	.	.	.	.	.	.	.
8F\	.	.	(16A/LL	.	.	.	.	.	.	.	.	.	.	.	.
.	.	.	16c/	.	.	.	.	.	.	.	.	.	.	.	.
8F\J	.	.	16f/	.	.	.	.	.	.	.	.	.	.	.	.
.	.	.	16c/JJ)	.	.	.	.	.	.	.	.	.	.	.	.
=95	=95	=95	=95	=95	=95	=95	=95	=95	=95	=95	=95	=95	=95	=95	=95
8BB-/L	.	.	(16B-/LL	.	4.dd\	.	2.ryy	4.d\	Aff-	2.ryy	2.ryy	2.ryy	2.ryy	2.ryy	2.ryy
.	.	.	16d/	.	.	.	.	.	.	.	.	.	.	.	.
8BB-/	.	.	16f/	.	.	.	.	.	.	.	.	.	.	.	.
.	.	.	16d/JJ)	.	.	.	.	.	.	.	.	.	.	.	.
8BB-/	.	.	(16B-/LL	.	.	.	.	.	.	.	.	.	.	.	.
.	.	.	16d/	.	.	.	.	.	.	.	.	.	.	.	.
8BB-/	.	.	16f/	.	(16ee-\LL	.	.	16e-\LL	-li-	.	.	.	.	.	.
.	.	.	16d/JJ)	.	16dd\JJ)	.	.	16d\JJ	.	.	.	.	.	.	.
8BB-/	.	.	(16B-/LL	.	(16cc\LL	.	.	16c\LL	-cto-	.	.	.	.	.	.
.	.	.	16d/	.	16dd\	.	.	16d\	.	.	.	.	.	.	.
8BB-/J	.	.	16f/	.	16ee-\	.	.	16e-\	.	.	.	.	.	.	.
.	.	.	16d/JJ)	.	16ff\JJ)	.	.	16f\JJ	.	.	.	.	.	.	.
=96	=96	=96	=96	=96	=96	=96	=96	=96	=96	=96	=96	=96	=96	=96	=96
8E-\L	.	.	(16e-/LL	.	2.gg\	.	2.ryy	2.g\	-rum	2.ryy	2.ryy	2.ryy	2.ryy	2.ryy	2.ryy
.	.	.	16g/	.	.	.	.	.	.	.	.	.	.	.	.
8E-\	.	.	16b-/	.	.	.	.	.	.	.	.	.	.	.	.
.	.	.	16g/JJ)	.	.	.	.	.	.	.	.	.	.	.	.
8E-\	.	.	(16e-/LL	.	.	.	.	.	.	.	.	.	.	.	.
.	.	.	16g/	.	.	.	.	.	.	.	.	.	.	.	.
8E-\	.	.	16b-/	.	.	.	.	.	.	.	.	.	.	.	.
.	.	.	16g/JJ)	.	.	.	.	.	.	.	.	.	.	.	.
8E-\	.	.	16e-/LL	.	.	.	.	.	.	.	.	.	.	.	.
.	.	.	16g/	.	.	.	.	.	.	.	.	.	.	.	.
8E-\J	.	.	16b-/	.	.	.	.	.	.	.	.	.	.	.	.
.	.	.	16g/JJ	.	.	.	.	.	.	.	.	.	.	.	.
*Xtremolo	*	*	*	*	*	*	*	*	*	*	*	*	*	*	*
=97	=97	=97	=97	=97	=97	=97	=97	=97	=97	=97	=97	=97	=97	=97	=97
4BB-/	.	.	4.dd\	.	4ff\	.	2.ryy	4f\	o-	2.ryy	2.ryy	2.ryy	2.ryy	2.ryy	2.ryy
4B-\	.	.	.	.	8bb-\L	.	.	4.f\	-ra	.	.	.	.	.	.
.	.	.	(16bb-\LL	.	(16ddd\L	.	.	.	.	.	.	.	.	.	.
.	.	.	16aa\JJ)	.	16ccc\JJ)	.	.	.	.	.	.	.	.	.	.
4r	.	.	(16gg\LL	.	(16bb-\LL	.	.	.	.	.	.	.	.	.	.
.	.	.	16ff\	.	16aa\	.	.	.	.	.	.	.	.	.	.
.	.	.	16ee-\	.	16gg\	.	.	16g\LL	pro-	.	.	.	.	.	.
.	.	.	16dd\JJ)	.	16ff\JJ)	.	.	16f\JJ	.	.	.	.	.	.	.
!LO:PB:g=original	!	!	!LO:PB:g=original	!	!LO:LB:g=original	!	!	!	!	!	!	!	!	!	!
=98	=98	=98	=98	=98	=98	=98	=98	=98	=98	=98	=98	=98	=98	=98	=98
.	.	.	.	.	8qqff/	.	.	8qqf/	.	.	.	.	.	.	.
4F\	.	.	4cc\	.	4ee-\	.	2.ryy	4e-\	-no-	2.ryy	2.ryy	2.ryy	2.ryy	2.ryy	2.ryy
4BB-/	.	.	4b-\	.	4dd\	.	.	4d\	-bis	.	.	.	.	.	.
4r	.	.	4r	.	4r	.	.	8r	.	.	.	.	.	.	.
.	.	.	.	.	.	.	.	8c\	O-	.	.	.	.	.	.
=99	=99	=99	=99	=99	=99	=99	=99	=99	=99	=99	=99	=99	=99	=99	=99
*tremolo	*	*	*	*	*	*	*	*	*	*	*	*	*	*	*
8E-\L	6	.	8g/L	.	4.cc\	.	2.ryy	4.c\	-ra	2.ryy	2.ryy	2.ryy	2.ryy	2.ryy	2.ryy
8E-\	.	.	8g/J	.	.	.	.	.	.	.	.	.	.	.	.
8E-\	.	.	8g/L	.	.	.	.	.	.	.	.	.	.	.	.
8E-\	3	.	16g/L	.	16ee-\LL	.	.	16e-\LL	pro-	.	.	.	.	.	.
.	.	.	16f/JJ	.	16dd\JJ	.	.	16d\JJ	.	.	.	.	.	.	.
.	.	.	.	.	8qdd/	.	.	8qd/	.	.	.	.	.	.	.
8E-\	.	.	8e-/L	.	8cc\L	.	.	8c\L	-no-	.	.	.	.	.	.
8E-\J	.	.	16d/L	.	16b-\L	.	.	16B-\L	.	.	.	.	.	.	.
.	.	.	16c/JJ	.	16a\JJ	.	.	16A\JJ	.	.	.	.	.	.	.
*Xtremolo	*	*	*	*	*	*	*	*	*	*	*	*	*	*	*
=100	=100	=100	=100	=100	=100	=100	=100	=100	=100	=100	=100	=100	=100	=100	=100
8D\L	.	.	16d/LL	.	(16b-\LL	.	2.ryy	16B-\LL	.	2.ryy	2.ryy	2.ryy	2.ryy	2.ryy	2.ryy
.	.	.	(16c/	.	16a\	.	.	16A\	.	.	.	.	.	.	.
8F\	.	.	16e-/	.	16cc\	.	.	16c\	.	.	.	.	.	.	.
.	.	.	16c/JJ)	.	16a\JJ)	.	.	16A\JJ	.	.	.	.	.	.	.
8B-\	.	.	8d/L	.	8b-/L	.	.	4B-\	-bis	.	.	.	.	.	.
8F\	.	.	8f/	.	8f/	.	.	.	.	.	.	.	.	.	.
8D\	.	.	8d/	.	8d/	.	.	4r	.	.	.	.	.	.	.
8BB-\J	.	.	8B-/J	.	8B-/J	.	.	.	.	.	.	.	.	.	.
!	!	!	!	!	!	!	!	!LO:LB:g=original	!	!	!	!	!	!	!
=101	=101	=101	=101	=101	=101	=101	=101	=101	=101	=101	=101	=101	=101	=101	=101
!LO:TX:t=P:problem=mixed beam	!	!	!	!	!LO:TX:t=P:problem=mixed beam	!	!	!	!	!	!	!	!	!	!
8F\L	.	.	4c/	.	8A/L	.	2.ryy	4c\	Au-	2.ryy	2.ryy	2.ryy	2.ryy	2.ryy	2.ryy
!	!	!	!	!	!LO:TX:a:t=t	!	!	!	!	!	!	!	!	!	!
8F\	.	.	.	.	8aa\	.	.	.	.	.	.	.	.	.	.
8AA/	.	.	(8ee-\L	.	8ccc\	.	.	4.e-\	.	.	.	.	.	.	.
8AA/	.	.	8cc\)	.	8ee-T\	.	.	.	.	.	.	.	.	.	.
8BB-/	.	.	8a|\	.	8dd\	.	.	.	.	.	.	.	.	.	.
8BB-/J	.	.	8dd|\J	.	8bb-\J	.	.	8d\	.	.	.	.	.	.	.
=102	=102	=102	=102	=102	=102	=102	=102	=102	=102	=102	=102	=102	=102	=102	=102
4FF/	.	.	8.b-/L	.	8dd\L	.	2.ryy	8.d\	-xi-	2.ryy	2.ryy	2.ryy	2.ryy	2.ryy	2.ryy
.	.	.	.	.	8cc\	.	.	.	.	.	.	.	.	.	.
.	.	.	16a/Jk	.	.	.	.	16c\	-li-	.	.	.	.	.	.
4F\	.	.	8a/L	.	8cc\	.	.	4c\	-um	.	.	.	.	.	.
.	.	.	8f/	.	(8cc\	.	.	.	.	.	.	.	.	.	.
4FF/	.	.	8e-/	.	8dd\	.	.	4r	.	.	.	.	.	.	.
.	.	.	8c/J	.	8ee-\J)	.	.	.	.	.	.	.	.	.	.
=103	=103	=103	=103	=103	=103	=103	=103	=103	=103	=103	=103	=103	=103	=103	=103
*	*	*	*tremolo	*	*tremolo	*	*	*	*	*	*	*	*	*	*
4BB-/	.	.	8d/L	.	8ff\L	.	2.ryy	8f\L	Chri-	2.ryy	2.ryy	2.ryy	2.ryy	2.ryy	2.ryy
.	.	.	8d/	.	8ff\	.	.	8d\J	.	.	.	.	.	.	.
4r	.	.	8d/	.	8ff\	.	.	4B-\	-ſti-	.	.	.	.	.	.
.	.	.	8d/	.	8ff\	.	.	.	.	.	.	.	.	.	.
4r	.	.	8d/	.	8ff\	.	.	4B-\	-a-	.	.	.	.	.	.
.	.	.	8d/J	.	8ff\J	.	.	.	.	.	.	.	.	.	.
!	!	!	!LO:LB:g=original	!	!	!	!	!	!	!	!	!	!	!	!
=104	=104	=104	=104	=104	=104	=104	=104	=104	=104	=104	=104	=104	=104	=104	=104
*tremolo	*	*	*	*	*	*	*	*	*	*	*	*	*	*	*
8BB-/L	.	.	8d/L	.	8ff\L	.	2.ryy	4.B-\	-no-	2.ryy	2.ryy	2.ryy	2.ryy	2.ryy	2.ryy
8BB-/	.	.	8d/	.	8ff\	.	.	.	.	.	.	.	.	.	.
8BB-/	.	.	8d/	.	8ff\	.	.	.	.	.	.	.	.	.	.
8BB-/	.	.	8d/	.	8ff\	.	.	16A\LL	.	.	.	.	.	.	.
.	.	.	.	.	.	.	.	16B-\JJ	.	.	.	.	.	.	.
8BB-/	.	.	8d/	.	8ff\	.	.	16c\LL	.	.	.	.	.	.	.
.	.	.	.	.	.	.	.	16B-\	.	.	.	.	.	.	.
8BB-/J	.	.	8d/J	.	8ff\J	.	.	16A\	.	.	.	.	.	.	.
.	.	.	.	.	.	.	.	16B-\JJ	.	.	.	.	.	.	.
=105	=105	=105	=105	=105	=105	=105	=105	=105	=105	=105	=105	=105	=105	=105	=105
8D\L	.	.	8b-\L	.	8ff\L	.	2.ryy	4f\	.	2.ryy	2.ryy	2.ryy	2.ryy	2.ryy	2.ryy
8D\	.	.	8b-\	.	8ff\	.	.	.	.	.	.	.	.	.	.
8D\	.	.	8b-\	.	8ff\	.	.	16e-\LL	.	.	.	.	.	.	.
.	.	.	.	.	.	.	.	16d\	.	.	.	.	.	.	.
8D\	.	.	8b-\	.	8ff\	.	.	16f\	.	.	.	.	.	.	.
.	.	.	.	.	.	.	.	16e-\JJ	.	.	.	.	.	.	.
8D\	.	.	8b-\	.	8ff\	.	.	16d\LL	.	.	.	.	.	.	.
.	.	.	.	.	.	.	.	16c\	.	.	.	.	.	.	.
8D\J	.	.	8b-\J	.	8ff\J	.	.	16B-\	.	.	.	.	.	.	.
.	.	.	.	.	.	.	.	16A-X\JJ	.	.	.	.	.	.	.
!LO:LB:g=original	!	!	!	!	!LO:LB:g=original	!	!	!	!	!	!	!	!	!	!
=106	=106	=106	=106	=106	=106	=106	=106	=106	=106	=106	=106	=106	=106	=106	=106
8E-\L	5	.	8b-\L	.	8gg\L	.	2.ryy	4G/	-rum	2.ryy	2.ryy	2.ryy	2.ryy	2.ryy	2.ryy
8E-\	.	.	8b-\	.	8gg\	.	.	.	.	.	.	.	.	.	.
8E-\	.	.	8b-\	.	8gg\	.	.	4r	.	.	.	.	.	.	.
8E-\	.	.	8b-\	.	8gg\	.	.	.	.	.	.	.	.	.	.
8E-\	.	.	8b-\	.	8gg\	.	.	4r	.	.	.	.	.	.	.
8E-\J	.	.	8b-\J	.	8gg\J	.	.	.	.	.	.	.	.	.	.
!	!	!	!	!	!	!	!	!LO:LB:g=original	!	!	!	!	!	!	!
=107	=107	=107	=107	=107	=107	=107	=107	=107	=107	=107	=107	=107	=107	=107	=107
8E-\L	6	.	8cc\L	.	8gg\L	.	2.ryy	8.g\L	O-	2.ryy	2.ryy	2.ryy	2.ryy	2.ryy	2.ryy
8E-\	.	.	8cc\	.	8gg\	.	.	.	.	.	.	.	.	.	.
.	.	.	.	.	.	.	.	16e-\Jk	.	.	.	.	.	.	.
8E-\	.	.	8cc\	.	8gg\	.	.	4c\	-ra	.	.	.	.	.	.
8E-\	.	.	8cc\	.	8gg\	.	.	.	.	.	.	.	.	.	.
8E-\	.	.	8cc\	.	8gg\	.	.	8r	.	.	.	.	.	.	.
8E-\J	.	.	8cc\J	.	8gg\J	.	.	8c\	O-	.	.	.	.	.	.
=108	=108	=108	=108	=108	=108	=108	=108	=108	=108	=108	=108	=108	=108	=108	=108
8E-\L	6	.	8cc\L	.	8gg\L	.	2.ryy	4.c\	.	2.ryy	2.ryy	2.ryy	2.ryy	2.ryy	2.ryy
8E-\	.	.	8cc\	.	8gg\	.	.	.	.	.	.	.	.	.	.
8E-\	.	.	8cc\	.	8gg\	.	.	.	.	.	.	.	.	.	.
8E-\	.	.	8cc\	.	8gg\	.	.	16Bn\LL	.	.	.	.	.	.	.
.	.	.	.	.	.	.	.	16c\JJ	.	.	.	.	.	.	.
8E-\	.	.	8cc\	.	8gg\	.	.	16d\LL	.	.	.	.	.	.	.
.	.	.	.	.	.	.	.	16c\	.	.	.	.	.	.	.
8E-\J	.	.	8cc\J	.	8gg\J	.	.	16B\	.	.	.	.	.	.	.
.	.	.	.	.	.	.	.	16c\JJ	.	.	.	.	.	.	.
=109	=109	=109	=109	=109	=109	=109	=109	=109	=109	=109	=109	=109	=109	=109	=109
8E-\L	.	.	8cc\L	.	8gg\L	.	2.ryy	4g\	.	2.ryy	2.ryy	2.ryy	2.ryy	2.ryy	2.ryy
8E-\	.	.	8cc\	.	8gg\	.	.	.	.	.	.	.	.	.	.
8E-\	.	.	8cc\	.	8gg\	.	.	16f\LL	.	.	.	.	.	.	.
.	.	.	.	.	.	.	.	16e-\	.	.	.	.	.	.	.
8E-\	.	.	8cc\	.	8gg\	.	.	16g\	.	.	.	.	.	.	.
.	.	.	.	.	.	.	.	16f\JJ	.	.	.	.	.	.	.
8E-\	.	.	8cc\	.	8gg\	.	.	16e-\LL	.	.	.	.	.	.	.
.	.	.	.	.	.	.	.	16d\	.	.	.	.	.	.	.
8E-\J	.	.	8cc\J	.	8gg\J	.	.	16c\	.	.	.	.	.	.	.
.	.	.	.	.	.	.	.	16B-\JJ	.	.	.	.	.	.	.
=110	=110	=110	=110	=110	=110	=110	=110	=110	=110	=110	=110	=110	=110	=110	=110
8F\L	.	.	8a\L	.	8ff\L	.	2.ryy	16A\LL	.	2.ryy	2.ryy	2.ryy	2.ryy	2.ryy	2.ryy
.	.	.	.	.	.	.	.	16c\	.	.	.	.	.	.	.
8F\	.	.	8a\	.	8ff\	.	.	16B-\	.	.	.	.	.	.	.
.	.	.	.	.	.	.	.	16d\JJ	.	.	.	.	.	.	.
8F\	.	.	8a\	.	8ff\	.	.	4c\	-ra,	.	.	.	.	.	.
8F\	.	.	8a\	.	8ff\	.	.	.	.	.	.	.	.	.	.
8F\	.	.	8a\	.	8ff\	.	.	8r	.	.	.	.	.	.	.
8F\J	.	.	8a\J	.	8ff\J	.	.	8F/	O-	.	.	.	.	.	.
=111	=111	=111	=111	=111	=111	=111	=111	=111	=111	=111	=111	=111	=111	=111	=111
8D\L	6	.	8b-\L	.	8ff\L	.	2.ryy	4f\	.	2.ryy	2.ryy	2.ryy	2.ryy	2.ryy	2.ryy
8D\	.	.	8b-\	.	8ff\	.	.	.	.	.	.	.	.	.	.
8D\	.	.	8b-\	.	8ff\	.	.	16e-\LL	.	.	.	.	.	.	.
.	.	.	.	.	.	.	.	16d\	.	.	.	.	.	.	.
8D\	5-	.	8b-\	.	8ff\	.	.	16f\	.	.	.	.	.	.	.
.	.	.	.	.	.	.	.	16e-\JJ	.	.	.	.	.	.	.
8D\	.	.	8b-\	.	8ff\	.	.	16d\LL	.	.	.	.	.	.	.
.	.	.	.	.	.	.	.	16c\	.	.	.	.	.	.	.
8D\J	.	.	8b-\J	.	8ff\J	.	.	16B-\	.	.	.	.	.	.	.
.	.	.	.	.	.	.	.	16A\JJ	.	.	.	.	.	.	.
!	!	!	!	!	!	!	!	!LO:LB:g=original	!	!	!	!	!	!	!
=112	=112	=112	=112	=112	=112	=112	=112	=112	=112	=112	=112	=112	=112	=112	=112
8E-\L	9	.	8g/L	.	8ee-\L	.	2.ryy	16G\LL	.	2.ryy	2.ryy	2.ryy	2.ryy	2.ryy	2.ryy
.	.	.	.	.	.	.	.	16B-\	.	.	.	.	.	.	.
8E-\	.	.	8g/	.	8ee-\	.	.	16A\	.	.	.	.	.	.	.
.	.	.	.	.	.	.	.	16c\JJ	.	.	.	.	.	.	.
8E-\	8	.	8g/	.	8ee-\	.	.	4B-\	-ra,	.	.	.	.	.	.
8E-\	.	.	8g/	.	8ee-\	.	.	.	.	.	.	.	.	.	.
8E-\	.	.	8g/	.	8ee-\	.	.	8r	.	.	.	.	.	.	.
8E-\J	.	.	8g/J	.	8ee-\J	.	.	8E-/	O-	.	.	.	.	.	.
=113	=113	=113	=113	=113	=113	=113	=113	=113	=113	=113	=113	=113	=113	=113	=113
8C\L	6	.	8a/L	.	8ee-\L	.	2.ryy	4e-\	.	2.ryy	2.ryy	2.ryy	2.ryy	2.ryy	2.ryy
8C\	.	.	8a/	.	8ee-\	.	.	.	.	.	.	.	.	.	.
8C\	.	.	8a/	.	8ee-\	.	.	16d\LL	.	.	.	.	.	.	.
.	.	.	.	.	.	.	.	16c\	.	.	.	.	.	.	.
8C\	5	.	8a/	.	8ee-\	.	.	16e-\	.	.	.	.	.	.	.
.	.	.	.	.	.	.	.	16d\JJ	.	.	.	.	.	.	.
8C\	.	.	8a/	.	8ee-\	.	.	16c\LL	.	.	.	.	.	.	.
.	.	.	.	.	.	.	.	16B-\	.	.	.	.	.	.	.
8C\J	.	.	8a/J	.	8ee-\J	.	.	16A\	.	.	.	.	.	.	.
.	.	.	.	.	.	.	.	16G\JJ	.	.	.	.	.	.	.
=114	=114	=114	=114	=114	=114	=114	=114	=114	=114	=114	=114	=114	=114	=114	=114
8D\L	9	.	8f/L	.	8dd\L	.	2.ryy	16F/LL	.	2.ryy	2.ryy	2.ryy	2.ryy	2.ryy	2.ryy
.	.	.	.	.	.	.	.	16A/	.	.	.	.	.	.	.
8D\	.	.	8f/	.	8dd\	.	.	16G/	.	.	.	.	.	.	.
.	.	.	.	.	.	.	.	16B-/JJ	.	.	.	.	.	.	.
8D\	8	.	8f/	.	8dd\	.	.	4A/	-ra	.	.	.	.	.	.
8D\	.	.	8f/	.	8dd\	.	.	.	.	.	.	.	.	.	.
8D\	.	.	8f/	.	8dd\	.	.	8r	.	.	.	.	.	.	.
8D\J	.	.	8f/J	.	8dd\J	.	.	8D/	o-	.	.	.	.	.	.
!	!	!	!LO:LB:g=original	!	!	!	!	!	!	!	!	!	!	!	!
=115	=115	=115	=115	=115	=115	=115	=115	=115	=115	=115	=115	=115	=115	=115	=115
8BB-/L	6	.	8g/L	.	8dd\L	.	2.ryy	4d\	.	2.ryy	2.ryy	2.ryy	2.ryy	2.ryy	2.ryy
8BB-/	.	.	8g/	.	8dd\	.	.	.	.	.	.	.	.	.	.
8BB-/	.	.	8g/	.	8dd\	.	.	16c\LL	.	.	.	.	.	.	.
.	.	.	.	.	.	.	.	16B-\	.	.	.	.	.	.	.
8BB-/	5	.	8g/	.	8dd\	.	.	16d\	.	.	.	.	.	.	.
.	.	.	.	.	.	.	.	16c\JJ	.	.	.	.	.	.	.
8BB-/	.	.	8g/	.	8dd\	.	.	16B-/LL	.	.	.	.	.	.	.
.	.	.	.	.	.	.	.	16A/	.	.	.	.	.	.	.
8BB-/J	.	.	8g/J	.	8dd\J	.	.	16G/	.	.	.	.	.	.	.
.	.	.	.	.	.	.	.	16F/JJ	.	.	.	.	.	.	.
=116	=116	=116	=116	=116	=116	=116	=116	=116	=116	=116	=116	=116	=116	=116	=116
8C/L	9	.	8e-/L	.	8cc\L	.	2.ryy	16E-/LL	.	2.ryy	2.ryy	2.ryy	2.ryy	2.ryy	2.ryy
.	.	.	.	.	.	.	.	16G/	.	.	.	.	.	.	.
8C/	.	.	8e-/	.	8cc\	.	.	16F/	.	.	.	.	.	.	.
.	.	.	.	.	.	.	.	16A/JJ	.	.	.	.	.	.	.
8C/	8	.	8e-/	.	8cc\	.	.	4G/	-ra	.	.	.	.	.	.
8C/	.	.	8e-/	.	8cc\	.	.	.	.	.	.	.	.	.	.
8C/	.	.	8e-/	.	8cc\	.	.	8r	.	.	.	.	.	.	.
8C/J	.	.	8e-/J	.	8cc\J	.	.	8C/	O-	.	.	.	.	.	.
!LO:LB:g=original	!	!	!	!	!	!	!	!LO:LB:g=original	!	!	!	!	!	!	!
=117	=117	=117	=117	=117	=117	=117	=117	=117	=117	=117	=117	=117	=117	=117	=117
8AA/L	6	.	8f/L	.	8cc\L	.	2.ryy	4c/	.	2.ryy	2.ryy	2.ryy	2.ryy	2.ryy	2.ryy
8AA/	.	.	8f/	.	8cc\	.	.	.	.	.	.	.	.	.	.
8AA/	.	.	8f/	.	8cc\	.	.	16B-\LL	.	.	.	.	.	.	.
.	.	.	.	.	.	.	.	16A\	.	.	.	.	.	.	.
8AA/	5	.	8f/	.	8cc\	.	.	16c\	.	.	.	.	.	.	.
.	.	.	.	.	.	.	.	16B-\JJ	.	.	.	.	.	.	.
8AA/	.	.	8f/	.	8cc\	.	.	16A/LL	.	.	.	.	.	.	.
.	.	.	.	.	.	.	.	16G/	.	.	.	.	.	.	.
8AA/J	.	.	8f/J	.	8cc\J	.	.	16F/	.	.	.	.	.	.	.
.	.	.	.	.	.	.	.	16E-/JJ	.	.	.	.	.	.	.
*Xtremolo	*	*	*Xtremolo	*	*Xtremolo	*	*	*	*	*	*	*	*	*	*
=118	=118	=118	=118	=118	=118	=118	=118	=118	=118	=118	=118	=118	=118	=118	=118
!	!	!	!LO:TUP:a:problem=klamra łukowa, kropka zamiast numeru	!	!	!	!	!	!	!	!	!	!	!	!
4BB-/	.	.	12f/L	.	4b-\	.	2.ryy	8D/L	.	2.ryy	2.ryy	2.ryy	2.ryy	2.ryy	2.ryy
.	.	.	12e-/	.	.	.	.	.	.	.	.	.	.	.	.
.	.	.	.	.	.	.	.	8G/	.	.	.	.	.	.	.
.	.	.	12d/J	.	.	.	.	.	.	.	.	.	.	.	.
4r	.	.	4d/	.	8r	.	.	8F/	.	.	.	.	.	.	.
.	.	.	.	.	(8dd\L	.	.	8B-/J	.	.	.	.	.	.	.
!	!	!	!	!	!	!	!	!LO:TX:t=P:problem=mixed beam	!	!	!	!	!	!	!
4r	.	.	4r	.	8cc\	.	.	8A\L	-ra	.	.	.	.	.	.
.	.	.	.	.	8ee-\J)	.	.	8g\J	.	.	.	.	.	.	.
!	!	!	!	!	!LO:LB:g=original	!	!	!	!	!	!	!	!	!	!
=119	=119	=119	=119	=119	=119	=119	=119	=119	=119	=119	=119	=119	=119	=119	=119
4F\	.	.	4f/	.	4dd\	.	2.ryy	4f\	O-	2.ryy	2.ryy	2.ryy	2.ryy	2.ryy	2.ryy
4FF/	.	.	4f/	.	4cc\	.	.	8e-\L	-ra	.	.	.	.	.	.
.	.	.	.	.	.	.	.	8c\J	.	.	.	.	.	.	.
4BB-/	.	.	4f/	.	4b-\	.	.	8d\L	pro-	.	.	.	.	.	.
.	.	.	.	.	.	.	.	8B-\J	.	.	.	.	.	.	.
=120	=120	=120	=120	=120	=120	=120	=120	=120	=120	=120	=120	=120	=120	=120	=120
4F\	.	.	4f/	.	8.a\L	.	2.ryy	8.A\L	-no-	2.ryy	2.ryy	2.ryy	2.ryy	2.ryy	2.ryy
.	.	.	.	.	16cc\Jk	.	.	16c\Jk	.	.	.	.	.	.	.
4r	.	.	(16a/LL	.	(16ff\LL	.	.	4F/	-bis,	.	.	.	.	.	.
.	.	.	16g/	.	16een\	.	.	.	.	.	.	.	.	.	.
.	.	.	16a/	.	16ff\	.	.	.	.	.	.	.	.	.	.
.	.	.	16b-/JJ)	.	16gg\JJ)	.	.	.	.	.	.	.	.	.	.
4r	.	.	8a/	.	8ff\	.	.	8r	.	.	.	.	.	.	.
.	.	.	8r	.	8r	.	.	8f\	Au-	.	.	.	.	.	.
=121	=121	=121	=121	=121	=121	=121	=121	=121	=121	=121	=121	=121	=121	=121	=121
4E-\	4+ 2	.	(16A/LL	.	8ff\L	.	2.ryy	8.F/	-xi-	2.ryy	2.ryy	2.ryy	2.ryy	2.ryy	2.ryy
.	.	.	16c/	.	.	.	.	.	.	.	.	.	.	.	.
.	.	.	16f/	.	8ff\	.	.	.	.	.	.	.	.	.	.
.	.	.	16c/JJ)	.	.	.	.	16A/	-li-	.	.	.	.	.	.
4E-\	_ _	.	(16A/LL	.	8.ff\	.	.	4F/	-um	.	.	.	.	.	.
.	.	.	16c/	.	.	.	.	.	.	.	.	.	.	.	.
.	.	.	16f/	.	.	.	.	.	.	.	.	.	.	.	.
.	.	.	16c/JJ)	.	16aa\K	.	.	.	.	.	.	.	.	.	.
4E-\	x	.	(16A/LL	.	8ff\	.	.	8r	.	.	.	.	.	.	.
.	.	.	16c/	.	.	.	.	.	.	.	.	.	.	.	.
.	.	.	16f/	.	8ff\J	.	.	8f\	Au-	.	.	.	.	.	.
.	.	.	16c/JJ)	.	.	.	.	.	.	.	.	.	.	.	.
!	!	!	!LO:LB:g=original	!	!	!	!	!LO:LB:g=original	!	!	!	!	!	!	!
=122	=122	=122	=122	=122	=122	=122	=122	=122	=122	=122	=122	=122	=122	=122	=122
4D\	6	.	(16B-/LL	.	8ff\L	.	2.ryy	8.F/	-xi-	2.ryy	2.ryy	2.ryy	2.ryy	2.ryy	2.ryy
.	.	.	16d/	.	.	.	.	.	.	.	.	.	.	.	.
.	.	.	16f/	.	8ff\	.	.	.	.	.	.	.	.	.	.
.	.	.	16d/JJ)	.	.	.	.	16B-/	-li-	.	.	.	.	.	.
4D\	.	.	(16B-/LL	.	8.ff\	.	.	4F/	-um	.	.	.	.	.	.
.	.	.	16d/	.	.	.	.	.	.	.	.	.	.	.	.
.	.	.	16f/	.	.	.	.	.	.	.	.	.	.	.	.
.	.	.	16d/JJ)	.	16bb-\K	.	.	.	.	.	.	.	.	.	.
4D\	.	.	(16B-/LL	.	8ff\	.	.	8r	.	.	.	.	.	.	.
.	.	.	16d/	.	.	.	.	.	.	.	.	.	.	.	.
*	*	*	*	*	*	*	*	*	*ij	*	*	*	*	*	*
.	.	.	16f/	.	8ff\J	.	.	8f\	Au-	.	.	.	.	.	.
.	.	.	16d/JJ)	.	.	.	.	.	.	.	.	.	.	.	.
=123	=123	=123	=123	=123	=123	=123	=123	=123	=123	=123	=123	=123	=123	=123	=123
4C/	.	.	(16c/LL	.	8ff\L	.	2.ryy	8.F/	-xi-	2.ryy	2.ryy	2.ryy	2.ryy	2.ryy	2.ryy
.	.	.	16e-/	.	.	.	.	.	.	.	.	.	.	.	.
.	.	.	16f/	.	8ff\	.	.	.	.	.	.	.	.	.	.
.	.	.	16e-/JJ)	.	.	.	.	16c\	-li-	.	.	.	.	.	.
4C/	.	.	(16c/LL	.	8.ff\	.	.	4F/	-um	.	.	.	.	.	.
*	*	*	*	*	*	*	*	*	*Xij	*	*	*	*	*	*
.	.	.	16e-/	.	.	.	.	.	.	.	.	.	.	.	.
.	.	.	16f/	.	.	.	.	.	.	.	.	.	.	.	.
.	.	.	16e-/JJ)	.	16ccc\K	.	.	.	.	.	.	.	.	.	.
4C/	.	.	(16c/LL	.	8ff\	.	.	4e-\	Chri-	.	.	.	.	.	.
.	.	.	16e-/	.	.	.	.	.	.	.	.	.	.	.	.
.	.	.	16f/	.	8ff\J	.	.	.	.	.	.	.	.	.	.
.	.	.	16e-/JJ)	.	.	.	.	.	.	.	.	.	.	.	.
=124	=124	=124	=124	=124	=124	=124	=124	=124	=124	=124	=124	=124	=124	=124	=124
*tremolo	*	*	*	*	*	*	*	*	*	*	*	*	*	*	*
8BB-/L	4 2	.	8f/L	.	2dd\	.	2.ryy	2d\	-sti-	2.ryy	2.ryy	2.ryy	2.ryy	2.ryy	2.ryy
8BB-/	.	.	8d/J	.	.	.	.	.	.	.	.	.	.	.	.
8BB-/	.	.	(4b-\	.	.	.	.	.	.	.	.	.	.	.	.
8BB-/	.	.	.	.	.	.	.	.	.	.	.	.	.	.	.
8BB-/	.	.	4cc\)	.	4ee-\	.	.	4e-\	-a-	.	.	.	.	.	.
8BB-/J	.	.	.	.	.	.	.	.	.	.	.	.	.	.	.
=125	=125	=125	=125	=125	=125	=125	=125	=125	=125	=125	=125	=125	=125	=125	=125
8BB-/L	5 3	.	(4dd\	.	4ff\	.	2.ryy	4f\	-no-	2.ryy	2.ryy	2.ryy	2.ryy	2.ryy	2.ryy
8BB-/	.	.	.	.	.	.	.	.	.	.	.	.	.	.	.
8BB-/	6 4	.	4ee-\)	.	4gg\	.	.	4g\	.	.	.	.	.	.	.
8BB-/	.	.	.	.	.	.	.	.	.	.	.	.	.	.	.
8BB-/	7 5	.	4cc\	.	4aa\	.	.	4e-\	.	.	.	.	.	.	.
8BB-/J	.	.	.	.	.	.	.	.	.	.	.	.	.	.	.
*Xtremolo	*	*	*	*	*	*	*	*	*	*	*	*	*	*	*
!LO:LB:g=original	!	!	!	!	!LO:LB:g=original	!	!	!	!	!	!	!	!	!	!
=126	=126	=126	=126	=126	=126	=126	=126	=126	=126	=126	=126	=126	=126	=126	=126
*	*	*	*^	*	*	*	*	*	*	*	*	*	*	*	*
4BB-/	.	.	8.dd\L	4ryy	.	8.bb-\L	f	2.ryy	4d\	-rum	2.ryy	2.ryy	2.ryy	2.ryy	2.ryy	2.ryy
.	.	.	(32cc\LL	.	.	32aa\LL	.	.	.	.	.	.	.	.	.	.
!	!	!	!	!	!LO:DY:t=for:colon;	!	!	!	!	!	!	!	!	!	!	!
.	.	.	32dd\JJJ)	.	f	32bb-\JJJ	.	.	.	.	.	.	.	.	.	.
4B-\	4+ 2	.	4b-/	4g\	.	4een\	.	.	4r	.	.	.	.	.	.	.
4r	.	.	4r	4ryy	.	4r	.	.	4r	.	.	.	.	.	.	.
*	*	*	*v	*v	*	*	*	*	*	*	*	*	*	*	*	*
!	!	!	!LO:LB:g=original	!	!	!	!	!	!	!	!	!	!	!	!
=127	=127	=127	=127	=127	=127	=127	=127	=127	=127	=127	=127	=127	=127	=127	=127
*tremolo	*	*	*	*	*	*	*	*	*	*	*	*	*	*	*
!	!	!LO:DY:b:t=po.	!	!LO:DY:t=po	!	!	!	!	!	!	!	!	!	!	!
8F\L	-7	p	16A/LL	p	2.ee-X\	p	2.ryy	2.e-\	O-	2.ryy	2.ryy	2.ryy	2.ryy	2.ryy	2.ryy
.	.	.	(16c/	.	.	.	.	.	.	.	.	.	.	.	.
8F\	.	.	16f/	.	.	.	.	.	.	.	.	.	.	.	.
.	.	.	16c/JJ)	.	.	.	.	.	.	.	.	.	.	.	.
8F\	.	.	16A/LL	.	.	.	.	.	.	.	.	.	.	.	.
.	.	.	(16c/	.	.	.	.	.	.	.	.	.	.	.	.
8F\	.	.	16f/	.	.	.	.	.	.	.	.	.	.	.	.
.	.	.	16c/JJ)	.	.	.	.	.	.	.	.	.	.	.	.
8F\	.	.	16A/LL	.	.	.	.	.	.	.	.	.	.	.	.
.	.	.	(16c/	.	.	.	.	.	.	.	.	.	.	.	.
8F\J	.	.	16f/	.	.	.	.	.	.	.	.	.	.	.	.
.	.	.	16c/JJ)	.	.	.	.	.	.	.	.	.	.	.	.
*Xtremolo	*	*	*	*	*	*	*	*	*	*	*	*	*	*	*
=128	=128	=128	=128	=128	=128	=128	=128	=128	=128	=128	=128	=128	=128	=128	=128
4B-\	.	.	8.f/L	.	8dd\L	.	2.ryy	8d\	-ra	2.ryy	2.ryy	2.ryy	2.ryy	2.ryy	2.ryy
.	.	.	.	.	16ee-\L	.	.	16e-\LL	pro-	.	.	.	.	.	.
.	.	.	32g/LL	.	16cc\JJ	.	.	16c\JJ	.	.	.	.	.	.	.
.	.	.	32e-/JJJ	.	.	.	.	.	.	.	.	.	.	.	.
4F\	4	.	4d/	.	4b-\	.	.	4B-\	-no-	.	.	.	.	.	.
4FF/	3	.	4c/	.	4an\	.	.	4A\	-bis	.	.	.	.	.	.
!	!	!	!	!	!	!	!	!LO:LB:g=original	!	!	!	!	!	!	!
=129	=129	=129	=129	=129	=129	=129	=129	=129	=129	=129	=129	=129	=129	=129	=129
*	*	*	*^	*	*	*	*	*	*	*	*	*	*	*	*
4BB-/	.	.	8.dd\L	4ryy	.	8.bb-\L	f	2.ryy	2.r	.	2.ryy	2.ryy	2.ryy	2.ryy	2.ryy	2.ryy
.	.	.	32cc\LL	.	f	32aa\LL	.	.	.	.	.	.	.	.	.	.
.	.	.	32dd\JJJ	.	.	32bb-\JJJ	.	.	.	.	.	.	.	.	.	.
4B-\	4+ 2	.	4b-/	4g\	.	4een\	.	.	.	.	.	.	.	.	.	.
4r	.	.	4r	4ryy	.	4r	.	.	.	.	.	.	.	.	.	.
*	*	*	*v	*v	*	*	*	*	*	*	*	*	*	*	*	*
=130	=130	=130	=130	=130	=130	=130	=130	=130	=130	=130	=130	=130	=130	=130	=130
*tremolo	*	*	*	*	*	*	*	*	*	*	*	*	*	*	*
!	!	!	!	!LO:DY:t=po.	!	!	!	!	!	!	!	!	!	!	!
8F\L	-7	.	16A/LL	p	2.ee-X\	p	2.ryy	2.e-\	O-	2.ryy	2.ryy	2.ryy	2.ryy	2.ryy	2.ryy
.	.	.	(16c/	.	.	.	.	.	.	.	.	.	.	.	.
8F\	.	.	16f/	.	.	.	.	.	.	.	.	.	.	.	.
.	.	.	16c/JJ)	.	.	.	.	.	.	.	.	.	.	.	.
8F\	.	.	16A/LL	.	.	.	.	.	.	.	.	.	.	.	.
.	.	.	(16c/	.	.	.	.	.	.	.	.	.	.	.	.
8F\	.	.	16f/	.	.	.	.	.	.	.	.	.	.	.	.
.	.	.	16c/JJ)	.	.	.	.	.	.	.	.	.	.	.	.
8F\	.	.	16A/LL	.	.	.	.	.	.	.	.	.	.	.	.
.	.	.	(16c/	.	.	.	.	.	.	.	.	.	.	.	.
8F\J	.	.	16f/	.	.	.	.	.	.	.	.	.	.	.	.
.	.	.	16c/JJ)	.	.	.	.	.	.	.	.	.	.	.	.
*Xtremolo	*	*	*	*	*	*	*	*	*	*	*	*	*	*	*
!	!	!	!LO:LB:g=original	!	!	!	!	!	!	!	!	!	!	!	!
=131	=131	=131	=131	=131	=131	=131	=131	=131	=131	=131	=131	=131	=131	=131	=131
4B-\	.	.	8.f/L	f	(8dd\L	f	2.ryy	8d\	-ra	2.ryy	2.ryy	2.ryy	2.ryy	2.ryy	2.ryy
.	.	.	.	.	16ee-\L	.	.	16e-\LL	pro-	.	.	.	.	.	.
.	.	.	(32g/LL	.	16cc\JJ)	.	.	16c\JJ	.	.	.	.	.	.	.
.	.	.	32e-/JJJ)	.	.	.	.	.	.	.	.	.	.	.	.
4F\	4	.	4d/	.	4b-\	.	.	4B-\	-no-	.	.	.	.	.	.
4FF/	3	.	4c/	.	4a\	.	.	4A\	.	.	.	.	.	.	.
=132	=132	=132	=132	=132	=132	=132	=132	=132	=132	=132	=132	=132	=132	=132	=132
*tremolo	*	*	*	*	*	*	*	*	*	*	*	*	*	*	*
8BB-/L	.	.	4d/	.	4b-\	p	2.ryy	4B-\	-bis	2.ryy	2.ryy	2.ryy	2.ryy	2.ryy	2.ryy
8BB-/	.	.	.	.	.	.	.	.	.	.	.	.	.	.	.
8BB-/	.	.	8r	.	8r	.	.	4r	.	.	.	.	.	.	.
!	!	!	!	!LO:DY:t=po&colon;	!	!	!	!	!	!	!	!	!	!	!
8BB-/J	.	.	8f/L	p	8ff|\L	.	.	.	.	.	.	.	.	.	.
*Xtremolo	*	*	*	*	*	*	*	*	*	*	*	*	*	*	*
8FF/L	7	.	8g/	.	(8ee-\	.	.	8e-\L	o-	.	.	.	.	.	.
8FF/J	.	.	8e-/J	.	8a\J)	.	.	8A\J	.	.	.	.	.	.	.
=133	=133	=133	=133	=133	=133	=133	=133	=133	=133	=133	=133	=133	=133	=133	=133
*tremolo	*	*	*	*	*	*	*	*	*	*	*	*	*	*	*
8BB-/L	.	.	4d/	f	4b-\	f	2.ryy	4B-\	-ra	2.ryy	2.ryy	2.ryy	2.ryy	2.ryy	2.ryy
8BB-/	.	.	.	.	.	.	.	.	.	.	.	.	.	.	.
8BB-/	.	.	8r	.	8r	.	.	4r	.	.	.	.	.	.	.
!	!	!	!	!LO:DY:t=po.	!	!	!	!	!	!	!	!	!	!	!
8BB-/J	.	.	8f/L	p	8ff|\L	p	.	.	.	.	.	.	.	.	.
*Xtremolo	*	*	*	*	*	*	*	*	*ij	*	*	*	*	*	*
8F\L	7	.	8g/	.	(8ee-\	.	.	8e-\L	o-	.	.	.	.	.	.
8F\J	.	.	8e-/J	.	8a\J)	.	.	8A\J	.	.	.	.	.	.	.
!	!	!	!	!	!LO:LB:g=original	!	!	!	!	!	!	!	!	!	!
=134	=134	=134	=134	=134	=134	=134	=134	=134	=134	=134	=134	=134	=134	=134	=134
!	!	!	!LO:TX:t=P:problem=mixed beam	!	!	!	!	!	!	!	!	!	!	!	!
4BB-/	.	.	8d/L	.	8b-\L	.	2.ryy	4B-\	-ra	2.ryy	2.ryy	2.ryy	2.ryy	2.ryy	2.ryy
*	*	*	*	*	*	*	*	*	*Xij	*	*	*	*	*	*
!	!	!	!LO:TUP:a:problem=klamra łukowa, kropka zamiast numeru	!	!LO:TUP:a:problem=klamra łukowa, kropka zamiast numeru	!	!	!	!	!	!	!	!	!	!
.	.	.	24bb-\L	.	24bb-\L	.	.	.	.	.	.	.	.	.	.
.	.	.	24aa\	.	24aa\	.	.	.	.	.	.	.	.	.	.
.	.	.	24bb-\JJ	.	24bb-\JJ	.	.	.	.	.	.	.	.	.	.
4r	.	.	8ddd\L	.	8ddd\L	.	.	4r	.	.	.	.	.	.	.
!	!	!	!LO:TUP:a:problem=klamra łukowa, kropka zamiast numeru	!	!LO:TUP:a:problem=klamra łukowa, kropka zamiast numeru	!	!	!	!	!	!	!	!	!	!
.	.	.	24gg\L	.	24gg\L	.	.	.	.	.	.	.	.	.	.
.	.	.	24ff\	.	24aa\	.	.	.	.	.	.	.	.	.	.
.	.	.	24gg\JJ	.	24gg\JJ	.	.	.	.	.	.	.	.	.	.
4r	.	.	8bb-\L	.	8bb-\L	.	.	4r	.	.	.	.	.	.	.
.	.	.	8een\J	.	8een\J	.	.	.	.	.	.	.	.	.	.
!LO:LB:g=original	!	!	!	!	!	!	!	!	!	!	!	!	!	!	!
=135	=135	=135	=135	=135	=135	=135	=135	=135	=135	=135	=135	=135	=135	=135	=135
8r	.	.	8ff|\L	.	8ff\	.	2.ryy	2.r	.	2.ryy	2.ryy	2.ryy	2.ryy	2.ryy	2.ryy
!	!	!	!LO:TUP:a:problem=klamra łukowa, kropka zamiast numeru	!	!LO:TUP:a:problem=klamra łukowa, kropka zamiast numeru	!	!	!	!	!	!	!	!	!	!
8B-\L	.	.	24b-\L	.	24b-\LL	.	.	.	.	.	.	.	.	.	.
.	.	.	24a\	.	24a\	.	.	.	.	.	.	.	.	.	.
.	.	.	24b-\JJ	.	24b-\JJ	.	.	.	.	.	.	.	.	.	.
8d\	.	.	8dd|\L	.	8dd\	.	.	.	.	.	.	.	.	.	.
!	!	!	!LO:TX:t=P:problem=brak oznaczenia trioli	!	!LO:TUP:a:problem=klamra łukowa, kropka zamiast numeru	!	!	!	!	!	!	!	!	!	!
8G\	.	.	24g\L	.	24g/LL	.	.	.	.	.	.	.	.	.	.
.	.	.	24f\	.	24f/	.	.	.	.	.	.	.	.	.	.
.	.	.	24g\JJ	.	24g/JJ	.	.	.	.	.	.	.	.	.	.
!	!	!	!LO:TX:t=P:problem=mixed beam	!	!	!	!	!	!	!	!	!	!	!	!
8B-\	.	.	8b-\L	.	8b-/L	.	.	.	.	.	.	.	.	.	.
8En\J	.	.	8en/J	.	8en/J	.	.	.	.	.	.	.	.	.	.
!	!	!	!LO:LB:g=original	!	!	!	!	!LO:LB:g=original	!	!	!	!	!	!	!
=136	=136	=136	=136	=136	=136	=136	=136	=136	=136	=136	=136	=136	=136	=136	=136
!	!	!	!	!	!LO:TX:t=P:problem=fermata też poniżej	!	!	!	!	!	!	!	!	!	!
2.F;;\	.	.	2.f;/	.	2.f;;/	.	2.ryy	16B-\LL	pro-	2.ryy	2.ryy	2.ryy	2.ryy	2.ryy	2.ryy
.	.	.	.	.	.	.	.	16c\	.	.	.	.	.	.	.
.	.	.	.	.	.	.	.	16B-\	.	.	.	.	.	.	.
.	.	.	.	.	.	.	.	16c\JJ	.	.	.	.	.	.	.
.	.	.	.	.	.	.	.	4.c;\	-no-	.	.	.	.	.	.
.	.	.	.	.	.	.	.	8B-\	.	.	.	.	.	.	.
=137	=137	=137	=137	=137	=137	=137	=137	=137	=137	=137	=137	=137	=137	=137	=137
4B-\	.	.	8d/L	.	8b-/L	f	2.ryy	4B-\	-bis	2.ryy	2.ryy	2.ryy	2.ryy	2.ryy	2.ryy
.	.	.	16f/L	.	16f/L	.	.	.	.	.	.	.	.	.	.
.	.	.	16d/JJ	.	16d/JJ	.	.	.	.	.	.	.	.	.	.
4BB-/	.	.	4B-/	.	4B-/	.	.	4r	.	.	.	.	.	.	.
4r	.	.	4r	.	4r	.	.	4r	.	.	.	.	.	.	.
=138	=138	=138	=138	=138	=138	=138	=138	=138	=138	=138	=138	=138	=138	=138	=138
*tremolo	*	*	*tremolo	*	*	*	*	*	*	*	*	*	*	*	*
8F\L	.	.	8an\L	.	4.ff\	.	2.ryy	0.r	.	2.ryy	2.ryy	2.ryy	2.ryy	2.ryy	2.ryy
8F\	.	.	8an\	.	.	.	.	.	.	.	.	.	.	.	.
8F\	.	.	8an\	.	.	.	.	.	.	.	.	.	.	.	.
8F\	.	.	8an\	.	(16een\LL	.	.	.	.	.	.	.	.	.	.
.	.	.	.	.	16ff\JJ)	.	.	.	.	.	.	.	.	.	.
8F\	.	.	8an\	.	(16gg\LL	.	.	.	.	.	.	.	.	.	.
.	.	.	.	.	16ff\	.	.	.	.	.	.	.	.	.	.
8F\J	.	.	8an\J	.	16ee\	.	.	.	.	.	.	.	.	.	.
.	.	.	.	.	16ff\JJ)	.	.	.	.	.	.	.	.	.	.
*	*	*	*Xtremolo	*	*	*	*	*	*	*	*	*	*	*	*
!	!	!	!	!	!LO:LB:g=original	!	!	!	!	!	!	!	!	!	!
=139	=139	=139	=139	=139	=139	=139	=139	=139	=139	=139	=139	=139	=139	=139	=139
8C/L	-7	.	4.b-\	.	2.een\	.	2.ryy	.	.	2.ryy	2.ryy	2.ryy	2.ryy	2.ryy	2.ryy
8C/	.	.	.	.	.	.	.	.	.	.	.	.	.	.	.
8C/	.	.	.	.	.	.	.	.	.	.	.	.	.	.	.
8C/	.	.	16a\LL	.	.	.	.	.	.	.	.	.	.	.	.
.	.	.	16b-\JJ	.	.	.	.	.	.	.	.	.	.	.	.
8C/	.	.	(16cc\LL	.	.	.	.	.	.	.	.	.	.	.	.
.	.	.	16b-\	.	.	.	.	.	.	.	.	.	.	.	.
8C/J	.	.	16a\	.	.	.	.	.	.	.	.	.	.	.	.
.	.	.	16b-\JJ)	.	.	.	.	.	.	.	.	.	.	.	.
=140	=140	=140	=140	=140	=140	=140	=140	=140	=140	=140	=140	=140	=140	=140	=140
*	*	*	*tremolo	*	*	*	*	*	*	*	*	*	*	*	*
8F\L	-7	.	8a\L	.	(4.ee-X\	.	2.ryy	.	.	2.ryy	2.ryy	2.ryy	2.ryy	2.ryy	2.ryy
8F\	.	.	8a\	.	.	.	.	.	.	.	.	.	.	.	.
8F\	.	.	8a\	.	.	.	.	.	.	.	.	.	.	.	.
8F\	.	.	8a\	.	16dd\LL	.	.	.	.	.	.	.	.	.	.
.	.	.	.	.	16ee-\JJ)	.	.	.	.	.	.	.	.	.	.
8F\	.	.	8a\	.	(16ff\LL	.	.	.	.	.	.	.	.	.	.
.	.	.	.	.	16ee-\	.	.	.	.	.	.	.	.	.	.
8F\J	.	.	8a\J	.	16dd\	.	.	.	.	.	.	.	.	.	.
.	.	.	.	.	16ee-\JJ)	.	.	.	.	.	.	.	.	.	.
*Xtremolo	*	*	*Xtremolo	*	*	*	*	*	*	*	*	*	*	*	*
=141	=141	=141	=141	=141	=141	=141	=141	=141	=141	=141	=141	=141	=141	=141	=141
4BB-/	.	.	16g\LL	.	16dd\LL	.	2.ryy	.	.	2.ryy	2.ryy	2.ryy	2.ryy	2.ryy	2.ryy
.	.	.	16bb-\	.	16bb-\	.	.	.	.	.	.	.	.	.	.
.	.	.	16ddd\	.	16ddd\	.	.	.	.	.	.	.	.	.	.
.	.	.	16bb-\JJ	.	16bb-\JJ	.	.	.	.	.	.	.	.	.	.
4r	.	.	16ff\LL	.	16ff\LL	.	.	.	.	.	.	.	.	.	.
.	.	.	16bb-\	.	16bb-\	.	.	.	.	.	.	.	.	.	.
.	.	.	16dd\	.	16dd\	.	.	.	.	.	.	.	.	.	.
.	.	.	16ff\JJ	.	16ff\JJ	.	.	.	.	.	.	.	.	.	.
4r	.	.	(16b-\LL	.	16b-\LL	.	.	.	.	.	.	.	.	.	.
.	.	.	16dd\	.	16dd\	.	.	.	.	.	.	.	.	.	.
.	.	.	16ff\	.	16ff\	.	.	.	.	.	.	.	.	.	.
.	.	.	16dd\JJ)	.	16dd\JJ	.	.	.	.	.	.	.	.	.	.
=142	=142	=142	=142	=142	=142	=142	=142	=142	=142	=142	=142	=142	=142	=142	=142
4F\	.	.	(16ee-\LL	.	(16ee-\LL	.	2.ryy	0.r	.	2.ryy	2.ryy	2.ryy	2.ryy	2.ryy	2.ryy
.	.	.	16cc\	.	16cc\	.	.	.	.	.	.	.	.	.	.
.	.	.	16ff\	.	16ff\	.	.	.	.	.	.	.	.	.	.
.	.	.	16aa\JJ)	.	16aa\JJ)	.	.	.	.	.	.	.	.	.	.
!	!	!	!LO:LB:g=original	!	!	!	!	!	!	!	!	!	!	!	!
4r	.	.	(16ccc\LL	.	(16ccc\LL	.	.	.	.	.	.	.	.	.	.
.	.	.	16bb-\	.	16bb-\	.	.	.	.	.	.	.	.	.	.
.	.	.	16aa\	.	16aa\	.	.	.	.	.	.	.	.	.	.
.	.	.	16gg\JJ)	.	16gg\JJ)	.	.	.	.	.	.	.	.	.	.
4r	.	.	(16ff\LL	.	(16ff\LL	.	.	.	.	.	.	.	.	.	.
.	.	.	16ee-\	.	16ee-\	.	.	.	.	.	.	.	.	.	.
.	.	.	16dd\	.	16dd\	.	.	.	.	.	.	.	.	.	.
.	.	.	16ee-\JJ)	.	16ee-\JJ)	.	.	.	.	.	.	.	.	.	.
=143	=143	=143	=143	=143	=143	=143	=143	=143	=143	=143	=143	=143	=143	=143	=143
!	!	!	!	!LO:DY:t=po&colon;	!	!	!	!	!	!	!	!	!	!	!
8BB-/L	.	.	(2b-\	p	2dd\	p	2.ryy	.	.	2.ryy	2.ryy	2.ryy	2.ryy	2.ryy	2.ryy
8BB-/	.	.	.	.	.	.	.	.	.	.	.	.	.	.	.
8BB-/	4 2	.	.	.	.	.	.	.	.	.	.	.	.	.	.
8BB-/	.	.	.	.	.	.	.	.	.	.	.	.	.	.	.
8BB-/	.	.	4cc\)	.	4ee-\	.	.	.	.	.	.	.	.	.	.
8BB-/J	.	.	.	.	.	.	.	.	.	.	.	.	.	.	.
!LO:LB:g=original	!	!	!	!	!LO:PB:g=original	!	!	!	!	!	!	!	!	!	!
=144	=144	=144	=144	=144	=144	=144	=144	=144	=144	=144	=144	=144	=144	=144	=144
8BB-/L	5 3	.	4dd\	.	(4ff\	.	2.ryy	.	.	2.ryy	2.ryy	2.ryy	2.ryy	2.ryy	2.ryy
8BB-/	.	.	.	.	.	.	.	.	.	.	.	.	.	.	.
8BB-/	6 4	.	4ee-\	.	4gg\	.	.	.	.	.	.	.	.	.	.
8BB-/	.	.	.	.	.	.	.	.	.	.	.	.	.	.	.
8BB-/	7 5	.	4cc\	.	4aa\)	.	.	.	.	.	.	.	.	.	.
8BB-/J	.	.	.	.	.	.	.	.	.	.	.	.	.	.	.
=145	=145	=145	=145	=145	=145	=145	=145	=145	=145	=145	=145	=145	=145	=145	=145
*	*	*	*^	*	*	*	*	*	*	*	*	*	*	*	*
4BB-/	.	.	8.dd\L	4ryy	f	8.bb-\L	f	2.ryy	.	.	2.ryy	2.ryy	2.ryy	2.ryy	2.ryy	2.ryy
.	.	.	32cc\LL	.	.	32aa\LL	.	.	.	.	.	.	.	.	.	.
.	.	.	32dd\JJJ	.	.	32bb-\JJJ	.	.	.	.	.	.	.	.	.	.
4B-\	4+ 2	.	4b-/	4g\	.	4een\	.	.	.	.	.	.	.	.	.	.
4r	.	.	4r	4ryy	.	4r	.	.	.	.	.	.	.	.	.	.
*	*	*	*v	*v	*	*	*	*	*	*	*	*	*	*	*	*
=146	=146	=146	=146	=146	=146	=146	=146	=146	=146	=146	=146	=146	=146	=146	=146
*tremolo	*	*	*	*	*	*	*	*	*	*	*	*	*	*	*
8F\L	-7	.	(16A/LL	.	2.ee-X\	p	2.ryy	0.r	.	2.ryy	2.ryy	2.ryy	2.ryy	2.ryy	2.ryy
.	.	.	16c/	.	.	.	.	.	.	.	.	.	.	.	.
8F\	.	.	16f/	.	.	.	.	.	.	.	.	.	.	.	.
.	.	.	16c/JJ)	.	.	.	.	.	.	.	.	.	.	.	.
8F\	.	.	(16A/LL	.	.	.	.	.	.	.	.	.	.	.	.
.	.	.	16c/	.	.	.	.	.	.	.	.	.	.	.	.
8F\	.	.	16f/	.	.	.	.	.	.	.	.	.	.	.	.
.	.	.	16c/JJ)	.	.	.	.	.	.	.	.	.	.	.	.
8F\	.	.	(16A/LL	.	.	.	.	.	.	.	.	.	.	.	.
.	.	.	16c/	.	.	.	.	.	.	.	.	.	.	.	.
8F\J	.	.	16f/	.	.	.	.	.	.	.	.	.	.	.	.
.	.	.	16c/JJ)	.	.	.	.	.	.	.	.	.	.	.	.
*Xtremolo	*	*	*	*	*	*	*	*	*	*	*	*	*	*	*
!	!	!	!LO:LB:g=original	!	!	!	!	!	!	!	!	!	!	!	!
=147	=147	=147	=147	=147	=147	=147	=147	=147	=147	=147	=147	=147	=147	=147	=147
4B-\	.	.	(8.f/L	.	8dd\L	.	2.ryy	.	.	2.ryy	2.ryy	2.ryy	2.ryy	2.ryy	2.ryy
.	.	.	.	.	16ee-\L	.	.	.	.	.	.	.	.	.	.
.	.	.	32g/LL	.	16cc\JJ	.	.	.	.	.	.	.	.	.	.
.	.	.	32e-/JJJ)	.	.	.	.	.	.	.	.	.	.	.	.
4F\	4	.	4d/	.	4b-\	.	.	.	.	.	.	.	.	.	.
!	!	!	!LO:TX:a:t=t	!	!	!	!	!	!	!	!	!	!	!	!
4FF/	3	.	4c/	.	4a\	.	.	.	.	.	.	.	.	.	.
=148	=148	=148	=148	=148	=148	=148	=148	=148	=148	=148	=148	=148	=148	=148	=148
*	*	*	*^	*	*	*	*	*	*	*	*	*	*	*	*
4BB-/	.	.	8.dd\L	4ryy	f	8.bb-\L	f	2.ryy	.	.	2.ryy	2.ryy	2.ryy	2.ryy	2.ryy	2.ryy
.	.	.	32cc\LL	.	.	32aa\LL	.	.	.	.	.	.	.	.	.	.
.	.	.	32dd\JJJ	.	.	32bb-\JJJ	.	.	.	.	.	.	.	.	.	.
4B-\	4+ 2	.	4b-/	4g\	.	4een\	.	.	.	.	.	.	.	.	.	.
4r	.	.	4r	4ryy	.	4r	.	.	.	.	.	.	.	.	.	.
*	*	*	*v	*v	*	*	*	*	*	*	*	*	*	*	*	*
=149	=149	=149	=149	=149	=149	=149	=149	=149	=149	=149	=149	=149	=149	=149	=149
*tremolo	*	*	*	*	*	*	*	*	*	*	*	*	*	*	*
!	!	!	!	!	!	!LO:DY:t=pia&colon;	!	!	!	!	!	!	!	!	!
8F\L	-7	.	(16A/LL	.	2.ee-X\	p	2.ryy	.	.	2.ryy	2.ryy	2.ryy	2.ryy	2.ryy	2.ryy
.	.	.	16c/	.	.	.	.	.	.	.	.	.	.	.	.
8F\	.	.	16f/	.	.	.	.	.	.	.	.	.	.	.	.
.	.	.	16c/JJ)	.	.	.	.	.	.	.	.	.	.	.	.
8F\	.	.	(16A/LL	.	.	.	.	.	.	.	.	.	.	.	.
.	.	.	16c/	.	.	.	.	.	.	.	.	.	.	.	.
8F\	.	.	16f/	.	.	.	.	.	.	.	.	.	.	.	.
.	.	.	16c/JJ)	.	.	.	.	.	.	.	.	.	.	.	.
8F\	.	.	(16A/LL	.	.	.	.	.	.	.	.	.	.	.	.
.	.	.	16c/	.	.	.	.	.	.	.	.	.	.	.	.
8F\J	.	.	16f/	.	.	.	.	.	.	.	.	.	.	.	.
.	.	.	16c/JJ)	.	.	.	.	.	.	.	.	.	.	.	.
*Xtremolo	*	*	*	*	*	*	*	*	*	*	*	*	*	*	*
=150	=150	=150	=150	=150	=150	=150	=150	=150	=150	=150	=150	=150	=150	=150	=150
4B-\	.	.	8.f/L	.	8dd\L	.	2.ryy	0.r	.	2.ryy	2.ryy	2.ryy	2.ryy	2.ryy	2.ryy
.	.	.	.	.	16ee-\L	.	.	.	.	.	.	.	.	.	.
.	.	.	32g/LL	.	16cc\JJ	.	.	.	.	.	.	.	.	.	.
.	.	.	32e-/JJJ	.	.	.	.	.	.	.	.	.	.	.	.
4F\	4	.	4d/	.	4b-\	.	.	.	.	.	.	.	.	.	.
4FF/	3	.	4c/	.	4a\	.	.	.	.	.	.	.	.	.	.
!	!	!	!	!	!LO:LB:g=original	!	!	!	!	!	!	!	!	!	!
=151	=151	=151	=151	=151	=151	=151	=151	=151	=151	=151	=151	=151	=151	=151	=151
8BB-/L	.	.	4d/	.	4b-\	f	2.ryy	.	.	2.ryy	2.ryy	2.ryy	2.ryy	2.ryy	2.ryy
8BB-/	.	.	.	.	.	.	.	.	.	.	.	.	.	.	.
8BB-/	.	.	8r	.	8r	.	.	.	.	.	.	.	.	.	.
8BB-/	.	.	8f|/L	f	8dd|\L	.	.	.	.	.	.	.	.	.	.
8FF/	7	.	(8g/	.	(8ee-\	.	.	.	.	.	.	.	.	.	.
8FF/J	.	.	8e-/J)	.	8cc\J)	.	.	.	.	.	.	.	.	.	.
!LO:LB:g=original	!	!	!LO:LB:g=original	!	!	!	!	!	!	!	!	!	!	!	!
=152	=152	=152	=152	=152	=152	=152	=152	=152	=152	=152	=152	=152	=152	=152	=152
*tremolo	*	*	*	*	*	*	*	*	*	*	*	*	*	*	*
8BB-/L	.	.	4d/	.	4b-\	.	2.ryy	.	.	2.ryy	2.ryy	2.ryy	2.ryy	2.ryy	2.ryy
8BB-/	.	.	.	.	.	.	.	.	.	.	.	.	.	.	.
8BB-/	.	.	8r	.	8r	.	.	.	.	.	.	.	.	.	.
8BB-/J	.	.	8f/L	.	8dd|\L	.	.	.	.	.	.	.	.	.	.
*Xtremolo	*	*	*	*	*	*	*	*	*	*	*	*	*	*	*
8FF/L	7	.	8g/	.	(8ee-\	.	.	.	.	.	.	.	.	.	.
8FF/J	.	.	8e-/J	.	8cc\J)	.	.	.	.	.	.	.	.	.	.
=153	=153	=153	=153	=153	=153	=153	=153	=153	=153	=153	=153	=153	=153	=153	=153
8BB-/L	.	.	8.b-/L 8.d/	.	8.b-/L	.	2.ryy	.	.	2.ryy	2.ryy	2.ryy	2.ryy	2.ryy	2.ryy
8FF/J	.	.	.	.	.	.	.	.	.	.	.	.	.	.	.
.	.	.	32f/LL	.	32f/LL	.	.	.	.	.	.	.	.	.	.
.	.	.	32d/JJJ	.	32d/JJJ	.	.	.	.	.	.	.	.	.	.
4BB-/	.	.	4B-/	.	4B-/	.	.	.	.	.	.	.	.	.	.
4r	.	.	4r	.	4r	.	.	.	.	.	.	.	.	.	.
==	==	==	==	==	==	==	==	==	==	==	==	==	==	==	==
*-	*-	*-	*-	*-	*-	*-	*-	*-	*-	*-	*-	*-	*-	*-	*-
!!!system-decoration: [(s1,s2)][(s3,s4)][(s5,s6,s7,s8)][(s9,s10)]s11
!!!RDF**kern: | = vertical stroke
!!!RDF**dynam: p = pia
!!!RDF**dynam: f = for
!!!AIN: 1 alto 3 empty 2 oboe 1 organ 1 tenor 2 violn 1 vox
!!!ENC: Tomasz Grochalski
!!!END: 2020-09-19
!!!ENC: Leszek Kubiak
!!!END: 2022-01-28
